;FLAVOR:Marlin
;TIME:6007
;Filament used: 3.7984m
;Layer height: 0.2
;MINX:81.75
;MINY:63.502
;MINZ:0.2
;MAXX:138.25
;MAXY:155.641
;MAXZ:21
;Generated with Cura_SteamEngine 4.9.0
M140 S60
M105
M190 S60
M104 S200
M105
M109 S200
M82 ;absolute extrusion mode
; Ender 3 Custom Start G-code
G92 E0 ; Reset Extruder
G28 ; Home all axes
G1 Z2.0 F3000 ; Move Z Axis up little to prevent scratching of Heat Bed
G1 X0.1 Y20 Z0.3 F5000.0 ; Move to start position
G1 X0.1 Y200.0 Z0.3 F1500.0 E15 ; Draw the first line
G1 X0.4 Y200.0 Z0.3 F5000.0 ; Move to side a little
G1 X0.4 Y20 Z0.3 F1500.0 E30 ; Draw the second line
G92 E0 ; Reset Extruder
G1 Z2.0 F3000 ; Move Z Axis up little to prevent scratching of Heat Bed
G1 X5 Y20 Z0.3 F5000.0 ; Move over to prevent blob squish
G92 E0
G92 E0
G1 F1500 E-6.5
;LAYER_COUNT:105
;LAYER:0
M107
G0 F6000 X84.316 Y67.46 Z0.2
;TYPE:SKIRT
G1 F1500 E0
G1 F1200 X84.948 Y66.766 E0.03122
G1 X85.636 Y66.129 E0.0624
G1 X86.376 Y65.553 E0.09359
G1 X87.162 Y65.041 E0.12479
G1 X87.989 Y64.599 E0.15598
G1 X88.851 Y64.229 E0.18718
G1 X89.741 Y63.933 E0.21838
G1 X90.653 Y63.715 E0.24957
G1 X91.58 Y63.574 E0.28075
G1 X92.451 Y63.515 E0.30979
G1 X92.772 Y63.506 E0.32047
G1 X93.08 Y63.502 E0.33071
G1 X126.543 Y63.502 E1.4437
G1 X127.399 Y63.513 E1.47217
G1 X128.335 Y63.567 E1.50335
G1 X129.263 Y63.699 E1.53453
G1 X130.177 Y63.911 E1.56574
G1 X131.069 Y64.2 E1.59692
G1 X131.934 Y64.563 E1.62812
G1 X132.764 Y64.999 E1.65931
G1 X133.555 Y65.504 E1.69052
G1 X134.299 Y66.075 E1.72171
G1 X134.992 Y66.707 E1.75291
G1 X135.629 Y67.395 E1.78409
G1 X136.204 Y68.136 E1.81529
G1 X136.715 Y68.922 E1.84647
G1 X137.157 Y69.75 E1.87769
G1 X137.526 Y70.612 E1.90887
G1 X137.821 Y71.502 E1.94006
G1 X138.039 Y72.414 E1.97125
G1 X138.179 Y73.342 E2.00246
G1 X138.237 Y74.203 E2.03116
G1 X138.246 Y74.523 E2.04181
G1 X138.25 Y74.832 E2.05209
G1 X138.249 Y135.929 E4.08418
G1 X138.239 Y136.65 E4.10817
G1 X138.186 Y137.586 E4.13935
G1 X138.053 Y138.514 E4.17053
G1 X137.842 Y139.428 E4.20173
G1 X137.554 Y140.321 E4.23294
G1 X137.191 Y141.185 E4.26411
G1 X136.755 Y142.016 E4.29532
G1 X136.251 Y142.806 E4.32649
G1 X135.68 Y143.551 E4.35771
G1 X135.049 Y144.244 E4.38888
G1 X134.36 Y144.881 E4.42009
G1 X133.917 Y145.239 E4.43903
G1 X133.59 Y145.487 E4.45268
G1 X131.827 Y146.794 E4.52568
G1 X129.884 Y148.321 E4.60787
G1 X127.943 Y149.937 E4.69187
G1 X125.54 Y152.068 E4.7987
G1 X124.809 Y152.739 E4.8317
G1 X124.092 Y153.343 E4.86288
G1 X123.325 Y153.883 E4.89408
G1 X122.515 Y154.357 E4.9253
G1 X121.668 Y154.759 E4.95648
G1 X120.79 Y155.088 E4.98766
G1 X119.887 Y155.341 E5.01885
G1 X118.965 Y155.516 E5.05007
G1 X117.745 Y155.625 E5.09081
G1 X117.359 Y155.635 E5.10365
G1 X116.814 Y155.641 E5.12178
G1 X112.996 Y155.641 E5.24876
G1 X111.281 Y155.617 E5.30581
G1 X108.679 Y155.617 E5.39235
G1 X108.203 Y155.628 E5.40819
G1 X106.964 Y155.641 E5.4494
G1 X103.114 Y155.641 E5.57745
G1 X102.455 Y155.631 E5.59937
G1 X101.519 Y155.577 E5.63056
G1 X100.591 Y155.443 E5.66174
G1 X99.677 Y155.23 E5.69296
G1 X98.785 Y154.941 E5.72414
G1 X97.921 Y154.577 E5.75533
G1 X97.091 Y154.14 E5.78653
G1 X96.301 Y153.634 E5.81773
G1 X95.557 Y153.063 E5.84892
G1 X95.159 Y152.713 E5.86655
G1 X94.891 Y152.466 E5.87867
G1 X92.922 Y150.685 E5.96698
G1 X91.025 Y149.067 E6.0499
G1 X89.052 Y147.477 E6.13418
G1 X87.039 Y145.947 E6.21828
G1 X86.212 Y145.334 E6.25252
G1 X85.483 Y144.744 E6.28371
G1 X84.806 Y144.095 E6.3149
G1 X84.188 Y143.39 E6.34609
G1 X83.632 Y142.634 E6.3773
G1 X83.142 Y141.835 E6.40847
G1 X82.722 Y140.996 E6.43968
G1 X82.375 Y140.125 E6.47086
G1 X82.104 Y139.227 E6.50206
G1 X81.91 Y138.309 E6.53327
G1 X81.795 Y137.379 E6.56444
G1 X81.763 Y136.801 E6.58369
G1 X81.754 Y136.478 E6.59444
G1 X81.75 Y136.172 E6.60461
G1 X81.751 Y75.027 E8.63831
G1 X81.76 Y74.362 E8.66043
G1 X81.813 Y73.426 E8.69161
G1 X81.945 Y72.497 E8.72282
G1 X82.156 Y71.583 E8.75402
G1 X82.444 Y70.691 E8.78519
G1 X82.807 Y69.826 E8.81639
G1 X83.242 Y68.995 E8.84759
G1 X83.746 Y68.205 E8.87876
G1 X84.316 Y67.46 E8.90996
G0 F6000 X84.711 Y67.613
G1 F1200 X85.339 Y66.941 E8.94055
G1 X86.024 Y66.325 E8.97119
G1 X86.76 Y65.772 E9.00181
G1 X87.541 Y65.284 E9.03244
G1 X88.361 Y64.866 E9.06305
G1 X89.215 Y64.521 E9.09368
G1 X90.095 Y64.251 E9.1243
G1 X90.995 Y64.059 E9.15491
G1 X91.909 Y63.945 E9.18554
G1 X92.462 Y63.915 E9.20396
G1 X92.783 Y63.906 E9.21464
G1 X93.08 Y63.902 E9.22452
G1 X126.543 Y63.902 E10.33751
G1 X127.393 Y63.913 E10.36578
G1 X128.312 Y63.966 E10.3964
G1 X129.223 Y64.099 E10.42702
G1 X130.119 Y64.31 E10.45763
G1 X130.993 Y64.598 E10.48824
G1 X131.84 Y64.961 E10.51889
G1 X132.651 Y65.396 E10.5495
G1 X133.421 Y65.9 E10.58011
G1 X134.145 Y66.469 E10.61074
G1 X134.817 Y67.099 E10.64137
G1 X135.432 Y67.784 E10.67199
G1 X135.985 Y68.52 E10.70261
G1 X136.472 Y69.301 E10.73322
G1 X136.889 Y70.122 E10.76385
G1 X137.234 Y70.976 E10.79448
G1 X137.503 Y71.856 E10.82509
G1 X137.695 Y72.757 E10.85573
G1 X137.808 Y73.67 E10.88633
G1 X137.837 Y74.214 E10.90445
G1 X137.846 Y74.534 E10.9151
G1 X137.85 Y74.832 E10.92501
G1 X137.849 Y135.923 E12.9569
G1 X137.839 Y136.644 E12.98089
G1 X137.786 Y137.563 E13.0115
G1 X137.654 Y138.474 E13.04212
G1 X137.443 Y139.37 E13.07273
G1 X137.155 Y140.245 E13.10337
G1 X136.793 Y141.091 E13.13398
G1 X136.358 Y141.903 E13.16462
G1 X135.855 Y142.674 E13.19524
G1 X135.286 Y143.398 E13.22586
G1 X134.657 Y144.07 E13.25648
G1 X133.674 Y144.921 E13.29972
G1 X133.352 Y145.165 E13.31316
G1 X131.609 Y146.457 E13.38532
G1 X129.605 Y148.032 E13.4701
G1 X127.689 Y149.627 E13.55301
G1 X125.286 Y151.759 E13.65986
G1 X124.539 Y152.444 E13.69357
G1 X123.834 Y153.037 E13.72421
G1 X123.08 Y153.565 E13.75483
G1 X122.284 Y154.026 E13.78542
G1 X121.45 Y154.417 E13.81606
G1 X120.585 Y154.733 E13.84669
G1 X119.697 Y154.974 E13.87729
G1 X118.79 Y155.136 E13.90793
G1 X117.732 Y155.225 E13.94325
G1 X117.354 Y155.235 E13.95583
G1 X116.814 Y155.241 E13.97379
G1 X113.002 Y155.241 E14.10057
G1 X111.287 Y155.217 E14.15762
G1 X108.668 Y155.217 E14.24473
G1 X108.199 Y155.228 E14.26033
G1 X106.964 Y155.241 E14.30141
G1 X103.12 Y155.241 E14.42926
G1 X102.461 Y155.231 E14.45118
G1 X101.542 Y155.177 E14.4818
G1 X100.631 Y155.043 E14.51243
G1 X99.735 Y154.831 E14.54305
G1 X98.861 Y154.542 E14.57367
G1 X98.015 Y154.179 E14.60429
G1 X97.204 Y153.743 E14.63491
G1 X96.434 Y153.238 E14.66554
G1 X95.43 Y152.419 E14.70864
G1 X95.103 Y152.117 E14.72344
G1 X93.221 Y150.415 E14.80784
G1 X91.251 Y148.735 E14.89395
G1 X89.321 Y147.18 E14.97638
G1 X87.28 Y145.627 E15.06169
G1 X86.45 Y145.013 E15.09602
G1 X85.735 Y144.433 E15.12665
G1 X85.072 Y143.794 E15.15727
G1 X84.468 Y143.099 E15.1879
G1 X83.926 Y142.355 E15.21851
G1 X83.451 Y141.566 E15.24914
G1 X83.046 Y140.74 E15.27974
G1 X82.714 Y139.881 E15.31037
G1 X82.458 Y138.996 E15.34101
G1 X82.28 Y138.093 E15.37162
G1 X82.163 Y136.79 E15.41514
G1 X82.154 Y136.467 E15.42588
G1 X82.15 Y136.172 E15.4357
G1 X82.151 Y75.033 E17.46919
G1 X82.16 Y74.368 E17.49131
G1 X82.212 Y73.448 E17.52196
G1 X82.344 Y72.537 E17.55257
G1 X82.555 Y71.641 E17.58319
G1 X82.842 Y70.766 E17.61382
G1 X83.205 Y69.92 E17.64444
G1 X83.639 Y69.108 E17.67506
G1 X84.142 Y68.337 E17.70568
G1 X84.711 Y67.613 E17.7363
G0 F6000 X85.105 Y67.769
G1 F1200 X85.731 Y67.119 E17.76632
G1 X86.412 Y66.526 E17.79635
G1 X87.144 Y65.996 E17.82641
G1 X87.919 Y65.533 E17.85644
G1 X88.732 Y65.14 E17.88647
G1 X89.577 Y64.82 E17.91652
G1 X90.446 Y64.577 E17.94654
G1 X91.334 Y64.411 E17.97658
G1 X92.473 Y64.315 E18.0146
G1 X92.794 Y64.306 E18.02528
G1 X93.08 Y64.302 E18.03479
G1 X126.543 Y64.302 E19.14778
G1 X127.387 Y64.313 E19.17585
G1 X128.289 Y64.366 E19.2059
G1 X129.182 Y64.498 E19.23593
G1 X130.06 Y64.709 E19.26596
G1 X130.916 Y64.997 E19.296
G1 X131.743 Y65.359 E19.32603
G1 X132.535 Y65.794 E19.35608
G1 X133.286 Y66.296 E19.38613
G1 X133.989 Y66.863 E19.41617
G1 X134.639 Y67.49 E19.4462
G1 X135.231 Y68.172 E19.47624
G1 X135.761 Y68.903 E19.50627
G1 X136.223 Y69.679 E19.53631
G1 X136.616 Y70.492 E19.56634
G1 X136.934 Y71.337 E19.59637
G1 X137.177 Y72.207 E19.62642
G1 X137.342 Y73.095 E19.65646
G1 X137.437 Y74.225 E19.69417
G1 X137.446 Y74.545 E19.70482
G1 X137.45 Y74.832 E19.71437
G1 X137.449 Y135.917 E21.74606
G1 X137.439 Y136.638 E21.77005
G1 X137.387 Y137.54 E21.8001
G1 X137.254 Y138.433 E21.83012
G1 X137.044 Y139.312 E21.86018
G1 X136.757 Y140.168 E21.89021
G1 X136.395 Y140.995 E21.92024
G1 X135.961 Y141.787 E21.95028
G1 X135.459 Y142.538 E21.98032
G1 X134.892 Y143.241 E22.01036
G1 X134.266 Y143.892 E22.0404
G1 X133.431 Y144.603 E22.07687
G1 X133.114 Y144.844 E22.09012
G1 X131.347 Y146.153 E22.16326
G1 X129.369 Y147.708 E22.24694
G1 X127.415 Y149.335 E22.33151
G1 X125.069 Y151.417 E22.43584
G1 X124.269 Y152.15 E22.47193
G1 X123.577 Y152.73 E22.50196
G1 X122.836 Y153.247 E22.53201
G1 X122.053 Y153.696 E22.56203
G1 X121.232 Y154.074 E22.59209
G1 X120.382 Y154.378 E22.62212
G1 X119.508 Y154.606 E22.65216
G1 X118.618 Y154.755 E22.68217
G1 X117.718 Y154.825 E22.7122
G1 X117.35 Y154.835 E22.72444
G1 X116.814 Y154.841 E22.74227
G1 X113.007 Y154.841 E22.86889
G1 X111.292 Y154.817 E22.92594
G1 X108.658 Y154.817 E23.01354
G1 X108.195 Y154.828 E23.02895
G1 X106.964 Y154.841 E23.06989
G1 X103.126 Y154.841 E23.19755
G1 X102.467 Y154.831 E23.21947
G1 X101.566 Y154.777 E23.24949
G1 X100.672 Y154.644 E23.27955
G1 X99.795 Y154.432 E23.30956
G1 X98.939 Y154.144 E23.3396
G1 X98.112 Y153.781 E23.36964
G1 X97.32 Y153.346 E23.39969
G1 X96.57 Y152.843 E23.42973
G1 X95.702 Y152.125 E23.46719
G1 X95.454 Y151.896 E23.47842
G1 X93.466 Y150.099 E23.56755
G1 X91.517 Y148.436 E23.65277
G1 X89.569 Y146.867 E23.73596
G1 X87.471 Y145.271 E23.82364
G1 X86.688 Y144.691 E23.85604
G1 X85.987 Y144.122 E23.88607
G1 X85.339 Y143.493 E23.91611
G1 X84.749 Y142.81 E23.94613
G1 X84.221 Y142.076 E23.9762
G1 X83.761 Y141.299 E24.00624
G1 X83.372 Y140.485 E24.03624
G1 X83.055 Y139.639 E24.06629
G1 X82.815 Y138.768 E24.09634
G1 X82.653 Y137.88 E24.12636
G1 X82.563 Y136.779 E24.1631
G1 X82.554 Y136.456 E24.17385
G1 X82.55 Y136.172 E24.1833
G1 X82.551 Y75.038 E26.21662
G1 X82.56 Y74.373 E26.23874
G1 X82.612 Y73.471 E26.26879
G1 X82.744 Y72.578 E26.29882
G1 X82.954 Y71.7 E26.32884
G1 X83.241 Y70.843 E26.3589
G1 X83.603 Y70.016 E26.38893
G1 X84.036 Y69.224 E26.41895
G1 X84.538 Y68.473 E26.449
G1 X85.105 Y67.769 E26.47906
G1 F1500 E19.97906
G0 F6000 X92.089 Y136.659
G0 X92.593 Y137.163
G0 X102.343 Y143.917
G0 X112.55 Y144.256
G1 F1500 E26.47906
G1 F1200 X117.3 Y144.255 E26.63705
G1 X117.298 Y144.441 E26.64323
G1 X112.55 Y144.442 E26.80115
G1 X112.55 Y144.256 E26.80734
G0 F6000 X107.45 Y144.255
G1 F1200 X107.448 Y144.441 E26.81353
G1 X102.7 Y144.442 E26.97144
G1 X102.7 Y144.256 E26.97763
G1 X107.45 Y144.255 E27.13562
G1 F1500 E20.63562
G0 F6000 X106.578 Y130.915
G0 X102.403 Y130.849
G0 X102.403 Y126.155
G0 X106.263 Y126.087
G0 X103.627 Y85.698
G0 X103.627 Y86.751
;TYPE:SUPPORT-INTERFACE
G1 F1500 E27.13562
G1 F1200 X100.184 Y86.744 E27.25013
G1 X98.25 Y86.746 E27.31446
G1 X98.25 Y86.561 E27.32061
G1 X110 Y86.566 E27.71142
G1 X116.372 Y86.566 E27.92335
G1 X121.75 Y86.56 E28.10222
G1 X121.75 Y86.746 E28.10841
G1 X119.815 Y86.745 E28.17277
G1 X116.374 Y86.751 E28.28722
G1 X103.627 Y86.751 E28.71118
G1 F1500 E22.21118
;MESH:ircamera_mount.stl
G0 F6000 X103.627 Y85.698
G0 X120.167 Y98.273
G0 X118.705 Y98.334
G0 X119.385 Y99.383
G0 X119.692 Y99.72
G0 X120.78 Y100.394
;TYPE:WALL-INNER
G1 F1500 E28.71118
G1 F1200 X121.391 Y100.369 E28.73152
G1 X121.97 Y100.169 E28.7519
G1 X122.468 Y99.811 E28.7723
G1 X122.84 Y99.323 E28.7927
G1 X123.056 Y98.75 E28.81307
G1 X123.098 Y98.138 E28.83347
G1 X122.962 Y97.54 E28.85387
G1 X122.659 Y97.008 E28.87423
G1 X122.217 Y96.585 E28.89458
G1 X121.67 Y96.307 E28.91499
G1 X121.067 Y96.199 E28.93537
G1 X120.459 Y96.268 E28.95572
G1 X119.896 Y96.511 E28.97611
G1 X119.442 Y96.89 E28.99578
G1 X119.244 Y97.149 E29.00663
G1 X119.096 Y97.412 E29.01666
G1 X118.987 Y97.706 E29.02709
G1 X118.921 Y97.996 E29.03699
G1 X118.897 Y98.326 E29.04799
G1 X118.987 Y98.918 E29.06791
G1 X119.25 Y99.473 E29.08833
G1 X119.662 Y99.926 E29.1087
G1 X120.186 Y100.242 E29.12905
G1 X120.78 Y100.394 E29.14944
G0 F6000 X120.822 Y99.992
;TYPE:WALL-OUTER
G1 F1200 X121.316 Y99.972 E29.16589
G1 X121.784 Y99.81 E29.18236
G1 X122.186 Y99.521 E29.19883
G1 X122.486 Y99.127 E29.2153
G1 X122.661 Y98.664 E29.23176
G1 X122.695 Y98.169 E29.24826
G1 X122.585 Y97.687 E29.26471
G1 X122.34 Y97.257 E29.28117
G1 X121.983 Y96.915 E29.29761
G1 X121.541 Y96.69 E29.31411
G1 X121.054 Y96.603 E29.33056
G1 X120.563 Y96.659 E29.347
G1 X120.108 Y96.855 E29.36348
G1 X119.733 Y97.168 E29.37972
G1 X119.579 Y97.37 E29.38817
G1 X119.46 Y97.581 E29.39623
G1 X119.371 Y97.82 E29.40471
G1 X119.318 Y98.055 E29.41272
G1 X119.299 Y98.31 E29.42123
G1 X119.374 Y98.8 E29.43771
G1 X119.586 Y99.248 E29.4542
G1 X119.919 Y99.614 E29.47066
G1 X120.342 Y99.869 E29.48708
G1 X120.822 Y99.992 E29.50357
G0 F6000 X120.776 Y100.429
G1 F1500 E23.00357
G0 F6000 X119.766 Y99.8
G0 X119.552 Y99.565
G0 X118.705 Y98.334
G0 X120.175 Y98.184
G0 X107.125 Y83.667
G0 X107.125 Y82.232
G0 X96.822 Y82.574
G0 X96.822 Y88.175
G0 X103.624 Y88.351
;TYPE:WALL-INNER
G1 F1500 E29.50357
G1 F1200 X116.375 Y88.351 E29.92767
G1 X119.816 Y88.345 E30.04211
G1 X123.151 Y88.346 E30.15304
G1 X123.35 Y88.346 E30.15965
G1 X123.35 Y88.147 E30.16394
G1 X123.35 Y82.402 E30.35502
G1 X96.65 Y82.402 E31.24306
G1 X96.65 Y88.148 E31.43418
G1 X96.65 Y88.347 E31.44079
G1 X96.849 Y88.347 E31.44508
G1 X100.183 Y88.344 E31.55597
G1 X103.624 Y88.351 E31.67041
G0 F6000 X103.625 Y87.951
;TYPE:WALL-OUTER
G1 F1200 X116.375 Y87.951 E32.09448
G1 X119.815 Y87.945 E32.2089
G1 X122.95 Y87.947 E32.31317
G1 X122.95 Y82.802 E32.48429
G1 X97.05 Y82.802 E33.34573
G1 X97.05 Y87.947 E33.51685
G1 X100.184 Y87.944 E33.62109
G1 X103.625 Y87.951 E33.73554
G0 F6000 X103.625 Y88.391
G1 F1500 E27.23554
G0 F6000 X96.822 Y88.175
G0 X96.822 Y82.574
G0 X102.851 Y82.232
G0 X102.851 Y83.667
G0 X98.573 Y97.485
G0 X98.834 Y96.053
G0 X100.03 Y97.109
G0 X100.31 Y97.6
G0 X100.436 Y98.15
G0 X100.398 Y98.715
G0 X100.197 Y99.244
G0 X99.92 Y99.608
G0 X98.891 Y100.369
;TYPE:WALL-INNER
G1 F1500 E33.73554
G1 F1200 X99.47 Y100.169 E33.75591
G1 X99.968 Y99.811 E33.77631
G1 X100.34 Y99.323 E33.79672
G1 X100.556 Y98.75 E33.81709
G1 X100.598 Y98.138 E33.83749
G1 X100.462 Y97.54 E33.85789
G1 X100.159 Y97.008 E33.87825
G1 X99.717 Y96.585 E33.8986
G1 X99.17 Y96.307 E33.91901
G1 X98.567 Y96.199 E33.93938
G1 X97.959 Y96.268 E33.95973
G1 X97.396 Y96.511 E33.98013
G1 X96.942 Y96.89 E33.9998
G1 X96.744 Y97.149 E34.01064
G1 X96.596 Y97.412 E34.02068
G1 X96.487 Y97.706 E34.03111
G1 X96.421 Y97.996 E34.041
G1 X96.397 Y98.326 E34.052
G1 X96.487 Y98.918 E34.07192
G1 X96.75 Y99.473 E34.09235
G1 X97.162 Y99.926 E34.11271
G1 X97.686 Y100.242 E34.13307
G1 X98.28 Y100.394 E34.15346
G1 X98.891 Y100.369 E34.1738
G0 F6000 X98.816 Y99.972
;TYPE:WALL-OUTER
G1 F1200 X99.284 Y99.81 E34.19027
G1 X99.686 Y99.521 E34.20674
G1 X99.986 Y99.127 E34.22321
G1 X100.161 Y98.664 E34.23967
G1 X100.195 Y98.169 E34.25617
G1 X100.085 Y97.687 E34.27262
G1 X99.84 Y97.257 E34.28908
G1 X99.483 Y96.915 E34.30552
G1 X99.041 Y96.69 E34.32202
G1 X98.554 Y96.603 E34.33847
G1 X98.063 Y96.659 E34.35491
G1 X97.608 Y96.855 E34.37139
G1 X97.233 Y97.168 E34.38763
G1 X97.079 Y97.37 E34.39608
G1 X96.96 Y97.581 E34.40414
G1 X96.871 Y97.82 E34.41262
G1 X96.818 Y98.055 E34.42063
G1 X96.799 Y98.31 E34.42914
G1 X96.874 Y98.8 E34.44562
G1 X97.086 Y99.248 E34.46211
G1 X97.419 Y99.614 E34.47857
G1 X97.842 Y99.869 E34.49499
G1 X98.322 Y99.992 E34.51147
G1 X98.816 Y99.972 E34.52792
G0 F6000 X98.897 Y100.404
G1 F1500 E28.02792
G0 F6000 X98.26 Y100.586
G0 X98.414 Y99.124
G0 X98.529 Y127.675
G0 X98.574 Y126.206
G0 X99.623 Y126.918
G0 X100.03 Y127.309
G0 X100.31 Y127.8
G0 X100.436 Y128.35
G0 X100.398 Y128.915
G0 X100.197 Y129.444
G0 X99.92 Y129.808
G0 X98.891 Y130.569
;TYPE:WALL-INNER
G1 F1500 E34.52792
G1 F1200 X99.47 Y130.369 E34.54829
G1 X99.968 Y130.011 E34.56869
G1 X100.34 Y129.523 E34.5891
G1 X100.556 Y128.95 E34.60947
G1 X100.598 Y128.338 E34.62987
