;FLAVOR:Marlin
;TIME:4077
;Filament used: 2.60835m
;Layer height: 0.2
;MINX:66
;MINY:70.5
;MINZ:0.2
;MAXX:154
;MAXY:149.5
;MAXZ:6
;Generated with Cura_SteamEngine 4.9.0
M140 S60
M105
M190 S60
M104 S200
M105
M109 S200
M82 ;absolute extrusion mode
; Ender 3 Custom Start G-code
G92 E0 ; Reset Extruder
G28 ; Home all axes
G1 Z2.0 F3000 ; Move Z Axis up little to prevent scratching of Heat Bed
G1 X0.1 Y20 Z0.3 F5000.0 ; Move to start position
G1 X0.1 Y200.0 Z0.3 F1500.0 E15 ; Draw the first line
G1 X0.4 Y200.0 Z0.3 F5000.0 ; Move to side a little
G1 X0.4 Y20 Z0.3 F1500.0 E30 ; Draw the second line
G92 E0 ; Reset Extruder
G1 Z2.0 F3000 ; Move Z Axis up little to prevent scratching of Heat Bed
G1 X5 Y20 Z0.3 F5000.0 ; Move over to prevent blob squish
G92 E0
G92 E0
G1 F1500 E-6.5
;LAYER_COUNT:30
;LAYER:0
M107
G0 F6000 X70.335 Y74.974 Z0.2
;TYPE:SKIRT
G1 F1500 E0
G1 F1200 X71.088 Y74.264 E0.03442
G1 X71.402 Y73.995 E0.04817
G1 X72.213 Y73.364 E0.08235
G1 X72.516 Y73.15 E0.09469
G1 X73.356 Y72.612 E0.12787
G1 X73.65 Y72.442 E0.13916
G1 X74.563 Y71.97 E0.17335
G1 X74.909 Y71.811 E0.18601
G1 X75.874 Y71.422 E0.22062
G1 X76.269 Y71.284 E0.23453
G1 X77.229 Y70.996 E0.26787
G1 X77.497 Y70.929 E0.27706
G1 X78.449 Y70.736 E0.30937
G1 X78.848 Y70.673 E0.3228
G1 X79.859 Y70.561 E0.35663
G1 X80.295 Y70.533 E0.37116
G1 X80.647 Y70.516 E0.38288
G1 X81.143 Y70.503 E0.39939
G1 X81.457 Y70.5 E0.40983
G1 X138.305 Y70.5 E2.3006
G1 X139.258 Y70.512 E2.3323
G1 X139.798 Y70.533 E2.35028
G1 X139.941 Y70.542 E2.35504
G1 X140.62 Y70.606 E2.37773
G1 X141.074 Y70.663 E2.39295
G1 X142.113 Y70.844 E2.42802
G1 X142.456 Y70.921 E2.43972
G1 X143.358 Y71.164 E2.47079
G1 X143.678 Y71.265 E2.48195
G1 X144.657 Y71.626 E2.51665
G1 X144.997 Y71.77 E2.52893
G1 X145.943 Y72.225 E2.56385
G1 X146.331 Y72.435 E2.57852
G1 X147.133 Y72.914 E2.60959
G1 X147.334 Y73.046 E2.61759
G1 X148.179 Y73.66 E2.65233
G1 X148.563 Y73.968 E2.6687
G1 X149.284 Y74.601 E2.70061
G1 X149.492 Y74.8 E2.71019
G1 X150.24 Y75.589 E2.74635
G1 X150.486 Y75.876 E2.75892
G1 X151.087 Y76.644 E2.79136
G1 X151.304 Y76.948 E2.80378
G1 X151.858 Y77.806 E2.83775
G1 X152.039 Y78.117 E2.84972
G1 X152.52 Y79.04 E2.88433
G1 X152.682 Y79.391 E2.89719
G1 X153.066 Y80.338 E2.93118
G1 X153.191 Y80.692 E2.94367
G1 X153.477 Y81.632 E2.97635
G1 X153.558 Y81.949 E2.98723
G1 X153.763 Y82.944 E3.02102
G1 X153.826 Y83.34 E3.03435
G1 X153.942 Y84.382 E3.06922
G1 X153.969 Y84.814 E3.08362
G1 X153.984 Y85.145 E3.09464
G1 X153.992 Y85.393 E3.10289
G1 X153.999 Y85.852 E3.11816
G1 X154 Y133.793 E4.71269
G1 X153.988 Y134.743 E4.74429
G1 X153.971 Y135.215 E4.75999
G1 X153.963 Y135.356 E4.76469
G1 X153.895 Y136.103 E4.78964
G1 X153.835 Y136.581 E4.80566
G1 X153.657 Y137.607 E4.8403
G1 X153.582 Y137.943 E4.85175
G1 X153.339 Y138.847 E4.88288
G1 X153.239 Y139.165 E4.89397
G1 X152.873 Y140.159 E4.9292
G1 X152.728 Y140.501 E4.94156
G1 X152.28 Y141.434 E4.97598
G1 X152.071 Y141.821 E4.99061
G1 X151.579 Y142.643 E5.02247
G1 X151.446 Y142.845 E5.03052
G1 X150.842 Y143.676 E5.06468
G1 X150.539 Y144.054 E5.0808
G1 X149.866 Y144.818 E5.11466
G1 X149.665 Y145.026 E5.12428
G1 X148.891 Y145.753 E5.1596
G1 X148.552 Y146.042 E5.17442
G1 X147.803 Y146.627 E5.20603
G1 X147.559 Y146.801 E5.21599
G1 X146.703 Y147.353 E5.24987
G1 X146.385 Y147.538 E5.26211
G1 X145.467 Y148.016 E5.29653
G1 X145.112 Y148.18 E5.30954
G1 X144.162 Y148.566 E5.34364
G1 X143.808 Y148.691 E5.35613
G1 X142.868 Y148.977 E5.38881
G1 X142.551 Y149.058 E5.39969
G1 X141.548 Y149.265 E5.43375
G1 X141.15 Y149.328 E5.44716
G1 X140.119 Y149.441 E5.48165
G1 X139.689 Y149.468 E5.49598
G1 X139.353 Y149.484 E5.50717
G1 X138.857 Y149.497 E5.52367
G1 X138.543 Y149.5 E5.53412
G1 X81.533 Y149.499 E7.43028
G1 X80.716 Y149.487 E7.45745
G1 X80.232 Y149.469 E7.47356
G1 X80.062 Y149.459 E7.47923
G1 X79.382 Y149.398 E7.50194
G1 X79.036 Y149.356 E7.51353
G1 X78.001 Y149.18 E7.54845
G1 X77.596 Y149.091 E7.56224
G1 X76.683 Y148.849 E7.59365
G1 X76.359 Y148.748 E7.60494
G1 X75.372 Y148.387 E7.6399
G1 X75.034 Y148.245 E7.65209
G1 X74.104 Y147.802 E7.68635
G1 X73.764 Y147.62 E7.69918
G1 X72.903 Y147.108 E7.7325
G1 X72.604 Y146.911 E7.74441
G1 X71.795 Y146.323 E7.77767
G1 X71.508 Y146.094 E7.78988
G1 X70.739 Y145.42 E7.82389
G1 X70.469 Y145.16 E7.83636
G1 X69.754 Y144.402 E7.87102
G1 X69.517 Y144.126 E7.88312
G1 X68.901 Y143.34 E7.91633
G1 X68.686 Y143.038 E7.92866
G1 X68.134 Y142.181 E7.96257
G1 X67.954 Y141.871 E7.97449
G1 X67.479 Y140.956 E8.00878
G1 X67.318 Y140.607 E8.02156
G1 X66.934 Y139.662 E8.05549
G1 X66.809 Y139.308 E8.06797
G1 X66.523 Y138.368 E8.10065
G1 X66.442 Y138.051 E8.11154
G1 X66.235 Y137.048 E8.1456
G1 X66.172 Y136.65 E8.159
G1 X66.059 Y135.619 E8.1935
G1 X66.032 Y135.189 E8.20783
G1 X66.015 Y134.841 E8.21942
G1 X66.007 Y134.583 E8.228
G1 X66.002 Y134.329 E8.23645
G1 X66 Y134.075 E8.2449
G1 X66.001 Y86.002 E9.84381
G1 X66.013 Y85.209 E9.87019
G1 X66.034 Y84.678 E9.88787
G1 X66.042 Y84.552 E9.89207
G1 X66.106 Y83.876 E9.91465
G1 X66.163 Y83.423 E9.92984
G1 X66.344 Y82.387 E9.96482
G1 X66.421 Y82.044 E9.97651
G1 X66.661 Y81.153 E10.0072
G1 X66.761 Y80.835 E10.01829
G1 X67.127 Y79.841 E10.05352
G1 X67.272 Y79.499 E10.06587
G1 X67.72 Y78.566 E10.1003
G1 X67.929 Y78.179 E10.11492
G1 X68.421 Y77.357 E10.14679
G1 X68.554 Y77.155 E10.15483
G1 X69.158 Y76.324 E10.189
G1 X69.461 Y75.946 E10.20511
G1 X70.134 Y75.182 E10.23898
G1 X70.335 Y74.974 E10.2486
G0 F6000 X70.623 Y75.252
G1 F1200 X71.349 Y74.568 E10.28177
G1 X71.663 Y74.299 E10.29552
G1 X72.444 Y73.691 E10.32844
G1 X72.747 Y73.477 E10.34078
G1 X73.556 Y72.959 E10.37273
G1 X73.85 Y72.789 E10.38403
G1 X74.73 Y72.333 E10.41699
G1 X75.076 Y72.174 E10.42966
G1 X76.006 Y71.799 E10.46301
G1 X76.401 Y71.661 E10.47693
G1 X77.326 Y71.384 E10.50904
G1 X77.594 Y71.317 E10.51823
G1 X78.512 Y71.131 E10.54938
G1 X78.911 Y71.068 E10.56282
G1 X79.885 Y70.96 E10.59541
G1 X80.321 Y70.932 E10.60994
G1 X80.66 Y70.915 E10.62123
G1 X81.147 Y70.902 E10.63744
G1 X81.355 Y70.9 E10.64436
G1 X138.305 Y70.9 E12.53852
G1 X139.252 Y70.912 E12.57002
G1 X139.773 Y70.932 E12.58736
G1 X139.916 Y70.941 E12.59213
G1 X140.57 Y71.003 E12.61398
G1 X141.024 Y71.06 E12.6292
G1 X142.026 Y71.234 E12.66302
G1 X142.369 Y71.311 E12.67471
G1 X143.237 Y71.546 E12.70462
G1 X143.557 Y71.647 E12.71578
G1 X144.501 Y71.994 E12.74923
G1 X144.841 Y72.138 E12.76151
G1 X145.753 Y72.577 E12.79518
G1 X146.141 Y72.787 E12.80985
G1 X146.914 Y73.249 E12.83981
G1 X147.115 Y73.381 E12.8478
G1 X147.928 Y73.972 E12.88123
G1 X148.312 Y74.28 E12.89761
G1 X149.008 Y74.89 E12.92839
G1 X149.216 Y75.089 E12.93796
G1 X149.936 Y75.85 E12.97281
G1 X150.182 Y76.137 E12.98538
G1 X150.761 Y76.877 E13.01663
G1 X150.978 Y77.181 E13.02905
G1 X151.512 Y78.007 E13.06177
G1 X151.693 Y78.318 E13.07373
G1 X152.156 Y79.208 E13.1071
G1 X152.318 Y79.559 E13.11996
G1 X152.689 Y80.472 E13.15274
G1 X152.814 Y80.826 E13.16522
G1 X153.089 Y81.731 E13.19668
G1 X153.17 Y82.048 E13.20757
G1 X153.368 Y83.007 E13.24014
G1 X153.431 Y83.403 E13.25347
G1 X153.542 Y84.407 E13.28707
G1 X153.569 Y84.839 E13.30147
G1 X153.584 Y85.158 E13.31209
G1 X153.598 Y85.647 E13.32836
G1 X153.6 Y85.856 E13.33531
G1 X153.599 Y133.939 E14.93456
G1 X153.588 Y134.738 E14.96113
G1 X153.572 Y135.192 E14.97624
G1 X153.564 Y135.333 E14.98094
G1 X153.498 Y136.053 E15.00499
G1 X153.438 Y136.531 E15.02101
G1 X153.266 Y137.52 E15.0544
G1 X153.191 Y137.856 E15.06585
G1 X152.958 Y138.727 E15.09584
G1 X152.858 Y139.045 E15.10693
G1 X152.505 Y140.003 E15.14088
G1 X152.36 Y140.345 E15.15324
G1 X151.928 Y141.244 E15.18641
G1 X151.719 Y141.631 E15.20104
G1 X151.245 Y142.423 E15.23174
G1 X151.112 Y142.625 E15.23978
G1 X150.53 Y143.426 E15.27272
G1 X150.227 Y143.804 E15.28883
G1 X149.578 Y144.54 E15.32147
G1 X149.377 Y144.748 E15.33109
G1 X148.632 Y145.449 E15.36511
G1 X148.293 Y145.738 E15.37993
G1 X147.57 Y146.301 E15.4104
G1 X147.326 Y146.475 E15.42037
G1 X146.502 Y147.007 E15.45299
G1 X146.184 Y147.192 E15.46523
G1 X145.299 Y147.653 E15.49842
G1 X144.944 Y147.817 E15.51143
G1 X144.028 Y148.189 E15.54431
G1 X143.674 Y148.314 E15.55679
G1 X142.769 Y148.589 E15.58825
G1 X142.452 Y148.67 E15.59914
G1 X141.485 Y148.87 E15.63198
G1 X141.087 Y148.933 E15.64538
G1 X140.094 Y149.042 E15.67861
G1 X139.664 Y149.069 E15.69294
G1 X139.34 Y149.085 E15.70373
G1 X138.853 Y149.098 E15.71993
G1 X138.645 Y149.1 E15.72685
G1 X81.539 Y149.099 E17.6262
G1 X80.722 Y149.087 E17.65338
G1 X80.256 Y149.07 E17.66889
G1 X80.086 Y149.06 E17.67455
G1 X79.431 Y149.001 E17.69643
G1 X79.085 Y148.959 E17.70802
G1 X78.087 Y148.789 E17.74169
G1 X77.682 Y148.7 E17.75548
G1 X76.802 Y148.467 E17.78576
G1 X76.478 Y148.366 E17.79705
G1 X75.527 Y148.019 E17.83072
G1 X75.189 Y147.877 E17.84291
G1 X74.293 Y147.449 E17.87594
G1 X73.953 Y147.267 E17.88876
G1 X73.123 Y146.773 E17.92089
G1 X72.824 Y146.576 E17.9328
G1 X72.045 Y146.011 E17.96481
G1 X71.758 Y145.782 E17.97702
G1 X71.016 Y145.131 E18.00985
G1 X70.746 Y144.871 E18.02232
G1 X70.057 Y144.142 E18.05568
G1 X69.82 Y143.866 E18.06778
G1 X69.227 Y143.108 E18.09979
G1 X69.012 Y142.806 E18.11212
G1 X68.48 Y141.981 E18.14477
G1 X68.3 Y141.671 E18.15669
G1 X67.842 Y140.788 E18.18977
G1 X67.681 Y140.439 E18.20256
G1 X67.311 Y139.528 E18.23526
G1 X67.186 Y139.174 E18.24775
G1 X66.911 Y138.269 E18.27921
G1 X66.83 Y137.952 E18.29009
G1 X66.63 Y136.985 E18.32293
G1 X66.567 Y136.587 E18.33634
G1 X66.458 Y135.594 E18.36956
G1 X66.431 Y135.164 E18.38389
G1 X66.415 Y134.829 E18.39505
G1 X66.402 Y134.325 E18.41182
G1 X66.4 Y134.071 E18.42026
G1 X66.401 Y86.008 E20.01885
G1 X66.413 Y85.215 E20.04522
G1 X66.433 Y84.703 E20.06227
G1 X66.441 Y84.577 E20.06647
G1 X66.503 Y83.926 E20.08822
G1 X66.56 Y83.473 E20.1034
G1 X66.734 Y82.474 E20.13713
G1 X66.811 Y82.131 E20.14882
G1 X67.042 Y81.273 E20.17837
G1 X67.142 Y80.955 E20.18946
G1 X67.495 Y79.997 E20.22342
G1 X67.64 Y79.655 E20.23577
G1 X68.072 Y78.756 E20.26895
G1 X68.281 Y78.369 E20.28358
G1 X68.755 Y77.577 E20.31428
G1 X68.888 Y77.375 E20.32232
G1 X69.47 Y76.574 E20.35525
G1 X69.773 Y76.196 E20.37136
G1 X70.422 Y75.46 E20.404
G1 X70.623 Y75.252 E20.41362
G0 F6000 X70.91 Y75.53
G1 F1200 X71.609 Y74.872 E20.44555
G1 X71.923 Y74.603 E20.4593
G1 X72.675 Y74.017 E20.49101
G1 X72.978 Y73.803 E20.50335
G1 X73.756 Y73.305 E20.53407
G1 X74.05 Y73.135 E20.54537
G1 X74.897 Y72.697 E20.57708
G1 X75.243 Y72.538 E20.58975
G1 X76.138 Y72.177 E20.62185
G1 X76.533 Y72.039 E20.63576
G1 X77.423 Y71.773 E20.66666
G1 X77.691 Y71.706 E20.67585
G1 X78.574 Y71.526 E20.70582
G1 X78.973 Y71.463 E20.71925
G1 X79.91 Y71.359 E20.75061
G1 X80.346 Y71.331 E20.76514
G1 X80.672 Y71.315 E20.776
G1 X81.151 Y71.302 E20.79194
G1 X81.359 Y71.3 E20.79885
G1 X138.305 Y71.3 E22.69289
G1 X139.247 Y71.312 E22.72422
G1 X139.748 Y71.331 E22.74089
G1 X139.891 Y71.34 E22.74566
G1 X140.521 Y71.399 E22.76671
G1 X140.975 Y71.456 E22.78192
G1 X141.938 Y71.625 E22.81444
G1 X142.281 Y71.702 E22.82614
G1 X143.117 Y71.927 E22.85493
G1 X143.437 Y72.028 E22.86609
G1 X144.345 Y72.363 E22.89828
G1 X144.685 Y72.507 E22.91056
G1 X145.562 Y72.929 E22.94293
G1 X145.95 Y73.139 E22.95761
G1 X146.694 Y73.583 E22.98642
G1 X146.895 Y73.715 E22.99442
G1 X147.678 Y74.284 E23.02661
G1 X148.062 Y74.592 E23.04299
G1 X148.731 Y75.179 E23.07259
G1 X148.939 Y75.378 E23.08216
G1 X149.632 Y76.11 E23.11569
G1 X149.878 Y76.397 E23.12826
G1 X150.436 Y77.109 E23.15835
G1 X150.653 Y77.413 E23.17077
G1 X151.167 Y78.208 E23.20226
G1 X151.348 Y78.519 E23.21423
G1 X151.793 Y79.376 E23.24634
G1 X151.955 Y79.727 E23.2592
G1 X152.312 Y80.605 E23.29073
G1 X152.437 Y80.959 E23.30321
G1 X152.701 Y81.83 E23.33348
G1 X152.782 Y82.147 E23.34437
G1 X152.973 Y83.069 E23.37568
G1 X153.036 Y83.465 E23.38902
G1 X153.143 Y84.432 E23.42138
G1 X153.17 Y84.864 E23.43578
G1 X153.185 Y85.171 E23.446
G1 X153.198 Y85.65 E23.46194
G1 X153.2 Y85.859 E23.46889
G1 X153.199 Y133.933 E25.06784
G1 X153.188 Y134.732 E25.09441
G1 X153.173 Y135.17 E25.10899
G1 X153.165 Y135.311 E25.11369
G1 X153.102 Y136.003 E25.1368
G1 X153.042 Y136.481 E25.15282
G1 X152.876 Y137.433 E25.18496
G1 X152.801 Y137.769 E25.19641
G1 X152.576 Y138.607 E25.22527
G1 X152.476 Y138.925 E25.23636
G1 X152.137 Y139.846 E25.269
G1 X151.992 Y140.188 E25.28136
G1 X151.576 Y141.054 E25.31331
G1 X151.367 Y141.441 E25.32794
G1 X150.911 Y142.203 E25.35747
G1 X150.778 Y142.405 E25.36552
G1 X150.218 Y143.176 E25.39721
G1 X149.915 Y143.554 E25.41333
G1 X149.291 Y144.262 E25.44471
G1 X149.09 Y144.47 E25.45433
G1 X148.372 Y145.144 E25.48709
G1 X148.033 Y145.433 E25.50191
G1 X147.338 Y145.976 E25.53124
G1 X147.094 Y146.15 E25.54121
G1 X146.301 Y146.662 E25.5726
G1 X145.983 Y146.847 E25.58484
G1 X145.132 Y147.29 E25.61675
G1 X144.777 Y147.454 E25.62975
G1 X143.895 Y147.812 E25.66141
G1 X143.541 Y147.937 E25.6739
G1 X142.67 Y148.201 E25.70417
G1 X142.353 Y148.282 E25.71505
G1 X141.423 Y148.475 E25.74665
G1 X141.025 Y148.538 E25.76005
G1 X140.069 Y148.643 E25.79204
G1 X139.639 Y148.67 E25.80637
G1 X139.328 Y148.685 E25.81672
G1 X138.849 Y148.698 E25.83266
G1 X138.641 Y148.7 E25.83958
G1 X81.545 Y148.699 E27.7386
G1 X80.728 Y148.687 E27.76577
G1 X80.279 Y148.67 E27.78072
G1 X80.109 Y148.66 E27.78638
G1 X79.479 Y148.604 E27.80742
G1 X79.133 Y148.562 E27.81901
G1 X78.173 Y148.398 E27.8514
G1 X77.768 Y148.309 E27.8652
G1 X76.921 Y148.085 E27.89434
G1 X76.597 Y147.984 E27.90562
G1 X75.682 Y147.65 E27.93802
G1 X75.344 Y147.508 E27.95021
G1 X74.481 Y147.097 E27.98201
G1 X74.141 Y146.915 E27.99483
G1 X73.343 Y146.439 E28.02574
G1 X73.044 Y146.242 E28.03765
G1 X72.294 Y145.698 E28.06846
G1 X72.007 Y145.469 E28.08068
G1 X71.294 Y144.843 E28.11223
G1 X71.024 Y144.583 E28.1247
G1 X70.361 Y143.881 E28.15682
G1 X70.124 Y143.605 E28.16892
G1 X69.553 Y142.876 E28.19972
G1 X69.338 Y142.574 E28.21205
G1 X68.826 Y141.78 E28.24347
G1 X68.646 Y141.47 E28.25539
G1 X68.205 Y140.621 E28.28721
G1 X68.044 Y140.272 E28.29999
G1 X67.688 Y139.395 E28.33148
G1 X67.563 Y139.041 E28.34396
G1 X67.299 Y138.17 E28.37423
G1 X67.218 Y137.853 E28.38511
G1 X67.025 Y136.923 E28.41671
G1 X66.962 Y136.525 E28.43011
G1 X66.857 Y135.569 E28.4621
G1 X66.83 Y135.139 E28.47643
G1 X66.815 Y134.816 E28.48718
G1 X66.802 Y134.322 E28.50362
G1 X66.8 Y134.068 E28.51207
G1 X66.801 Y86.014 E30.11035
G1 X66.813 Y85.221 E30.13673
G1 X66.832 Y84.729 E30.1531
G1 X66.84 Y84.603 E30.1573
G1 X66.9 Y83.976 E30.17825
G1 X66.957 Y83.523 E30.19344
G1 X67.125 Y82.562 E30.22588
G1 X67.202 Y82.219 E30.23758
G1 X67.424 Y81.393 E30.26602
G1 X67.524 Y81.075 E30.27711
G1 X67.863 Y80.154 E30.30975
G1 X68.008 Y79.812 E30.32211
G1 X68.424 Y78.946 E30.35406
G1 X68.633 Y78.559 E30.36869
G1 X69.089 Y77.797 E30.39823
G1 X69.222 Y77.595 E30.40627
G1 X69.782 Y76.824 E30.43797
G1 X70.085 Y76.446 E30.45408
G1 X70.709 Y75.738 E30.48547
G1 X70.91 Y75.53 E30.49509
G0 F6000 X80.827 Y85.2
G1 F1200 X81.173 Y85.2 E30.5066
G1 X81.346 Y85.5 E30.51811
G1 X81.173 Y85.8 E30.52963
G1 X80.827 Y85.8 E30.54114
G1 X80.654 Y85.5 E30.55266
G1 X80.827 Y85.2 E30.56418
G0 F6000 X80.597 Y84.8
G1 F1200 X81.403 Y84.8 E30.59098
G1 X81.808 Y85.5 E30.61788
G1 X81.403 Y86.2 E30.64478
G1 X80.597 Y86.2 E30.67159
G1 X80.192 Y85.5 E30.69849
G1 X80.597 Y84.8 E30.72538
G0 F6000 X80.365 Y84.4
G1 F1200 X81.635 Y84.4 E30.76762
G1 X82.27 Y85.5 E30.80987
G1 X81.635 Y86.6 E30.85211
G1 X80.365 Y86.6 E30.89435
G1 X79.73 Y85.5 E30.9366
G1 X80.365 Y84.4 E30.97884
G1 F1500 E24.47884
G0 F6000 X80.365 Y133.4
G1 F1500 E30.97884
G1 F1200 X81.635 Y133.4 E31.02108
G1 X82.27 Y134.5 E31.06333
G1 X81.635 Y135.6 E31.10557
G1 X80.365 Y135.6 E31.14781
G1 X79.73 Y134.5 E31.19006
G1 X80.365 Y133.4 E31.2323
G0 F6000 X80.597 Y133.8
G1 F1200 X81.403 Y133.8 E31.25911
G1 X81.808 Y134.5 E31.28601
G1 X81.403 Y135.2 E31.31291
G1 X80.597 Y135.2 E31.33971
G1 X80.192 Y134.5 E31.36661
G1 X80.597 Y133.8 E31.39351
G0 F6000 X80.827 Y134.2
G1 F1200 X81.173 Y134.2 E31.40502
G1 X81.346 Y134.5 E31.41654
G1 X81.173 Y134.8 E31.42805
G1 X80.827 Y134.8 E31.43956
G1 X80.654 Y134.5 E31.45108
G1 X80.827 Y134.2 E31.4626
G1 F1500 E24.9626
G0 F6000 X138.365 Y133.4
G1 F1500 E31.4626
G1 F1200 X139.635 Y133.4 E31.50484
