;FLAVOR:Marlin
;TIME:2413
;Filament used: 1.29618m
;Layer height: 0.2
;MINX:80.998
;MINY:73
;MINZ:0.2
;MAXX:139.002
;MAXY:134
;MAXZ:13
;Generated with Cura_SteamEngine 4.9.0
M140 S60
M105
M190 S60
M104 S200
M105
M109 S200
M82 ;absolute extrusion mode
; Ender 3 Custom Start G-code
G92 E0 ; Reset Extruder
G28 ; Home all axes
G1 Z2.0 F3000 ; Move Z Axis up little to prevent scratching of Heat Bed
G1 X0.1 Y20 Z0.3 F5000.0 ; Move to start position
G1 X0.1 Y200.0 Z0.3 F1500.0 E15 ; Draw the first line
G1 X0.4 Y200.0 Z0.3 F5000.0 ; Move to side a little
G1 X0.4 Y20 Z0.3 F1500.0 E30 ; Draw the second line
G92 E0 ; Reset Extruder
G1 Z2.0 F3000 ; Move Z Axis up little to prevent scratching of Heat Bed
G1 X5 Y20 Z0.3 F5000.0 ; Move over to prevent blob squish
G92 E0
G92 E0
G1 F1500 E-6.5
;LAYER_COUNT:65
;LAYER:0
M107
G0 F6000 X84.21 Y76.252 Z0.2
;TYPE:SKIRT
G1 F1500 E0
G1 F1200 X84.899 Y75.616 E0.03119
G1 X85.64 Y75.041 E0.06238
G1 X86.427 Y74.531 E0.09357
G1 X87.255 Y74.09 E0.12478
G1 X88.117 Y73.721 E0.15596
G1 X89.008 Y73.427 E0.18717
G1 X89.92 Y73.209 E0.21836
G1 X90.847 Y73.071 E0.24953
G1 X91.701 Y73.013 E0.278
G1 X92.021 Y73.004 E0.28865
G1 X92.33 Y73 E0.29892
G1 X127.293 Y73 E1.4618
G1 X128.149 Y73.011 E1.49027
G1 X129.085 Y73.065 E1.52145
G1 X130.013 Y73.197 E1.55263
G1 X130.927 Y73.409 E1.58384
G1 X131.819 Y73.698 E1.61502
G1 X132.684 Y74.061 E1.64622
G1 X133.514 Y74.497 E1.67741
G1 X134.305 Y75.002 E1.70862
G1 X135.049 Y75.573 E1.73981
G1 X135.742 Y76.205 E1.77101
G1 X136.379 Y76.893 E1.80219
G1 X136.954 Y77.634 E1.83339
G1 X137.465 Y78.42 E1.86457
G1 X137.907 Y79.248 E1.89579
G1 X138.276 Y80.11 E1.92697
G1 X138.571 Y81 E1.95816
G1 X138.789 Y81.912 E1.98935
G1 X138.929 Y82.84 E2.02056
G1 X138.987 Y83.701 E2.04926
G1 X138.996 Y84.021 E2.05991
G1 X139 Y84.328 E2.07012
G1 X139.002 Y96.04 E2.45967
G1 X138.998 Y97.012 E2.492
G1 X139 Y97.276 E2.50078
G1 X138.999 Y122.415 E3.3369
G1 X138.989 Y123.142 E3.36109
G1 X138.936 Y124.079 E3.3923
G1 X138.804 Y125.007 E3.42348
G1 X138.593 Y125.921 E3.45468
G1 X138.304 Y126.813 E3.48586
G1 X137.941 Y127.678 E3.51706
G1 X137.506 Y128.509 E3.54826
G1 X137.001 Y129.299 E3.57944
G1 X136.431 Y130.044 E3.61064
G1 X135.8 Y130.738 E3.64184
G1 X135.111 Y131.375 E3.67305
G1 X134.371 Y131.951 E3.70424
G1 X133.585 Y132.462 E3.73542
G1 X132.758 Y132.904 E3.76661
G1 X131.896 Y133.274 E3.79781
G1 X131.006 Y133.569 E3.829
G1 X130.094 Y133.788 E3.86019
G1 X129.167 Y133.928 E3.89137
G1 X128.299 Y133.987 E3.92031
G1 X127.979 Y133.996 E3.93096
G1 X127.67 Y134 E3.94123
G1 X92.565 Y133.999 E5.10883
G1 X91.867 Y133.99 E5.13205
G1 X90.931 Y133.938 E5.16323
G1 X90.002 Y133.806 E5.19444
G1 X89.088 Y133.596 E5.22563
G1 X88.195 Y133.309 E5.25683
G1 X87.33 Y132.946 E5.28803
G1 X86.499 Y132.512 E5.31921
G1 X85.708 Y132.008 E5.3504
G1 X84.963 Y131.438 E5.3816
G1 X84.269 Y130.807 E5.4128
G1 X83.632 Y130.12 E5.44396
G1 X83.055 Y129.38 E5.47517
G1 X82.543 Y128.594 E5.50637
G1 X82.1 Y127.767 E5.53758
G1 X81.729 Y126.906 E5.56876
G1 X81.433 Y126.016 E5.59995
G1 X81.214 Y125.104 E5.63115
G1 X81.073 Y124.177 E5.66234
G1 X81.013 Y123.288 E5.69197
G1 X81.004 Y122.955 E5.70305
G1 X81 Y122.659 E5.7129
G1 X80.998 Y96.96 E6.56765
G1 X81.002 Y95.988 E6.59998
G1 X81 Y95.724 E6.60876
G1 X81.001 Y84.509 E6.98177
G1 X81.011 Y83.844 E7.00389
G1 X81.065 Y82.907 E7.03511
G1 X81.199 Y81.979 E7.06629
G1 X81.411 Y81.065 E7.0975
G1 X81.7 Y80.173 E7.12869
G1 X82.065 Y79.309 E7.15988
G1 X82.501 Y78.479 E7.19107
G1 X83.007 Y77.689 E7.22227
G1 X83.578 Y76.945 E7.25346
G1 X84.21 Y76.252 E7.28466
G0 F6000 X84.602 Y76.427
G1 F1200 X85.288 Y75.813 E7.31528
G1 X86.024 Y75.261 E7.34588
G1 X86.806 Y74.774 E7.37652
G1 X87.627 Y74.358 E7.40713
G1 X88.481 Y74.014 E7.43775
G1 X89.361 Y73.745 E7.46836
G1 X90.262 Y73.554 E7.49899
G1 X91.176 Y73.442 E7.52962
G1 X91.712 Y73.413 E7.54747
G1 X92.032 Y73.404 E7.55812
G1 X92.33 Y73.4 E7.56803
G1 X127.293 Y73.4 E8.73091
G1 X128.143 Y73.411 E8.75918
G1 X129.062 Y73.464 E8.7898
G1 X129.973 Y73.597 E8.82042
G1 X130.869 Y73.808 E8.85103
G1 X131.743 Y74.096 E8.88164
G1 X132.59 Y74.459 E8.91229
G1 X133.401 Y74.894 E8.9429
G1 X134.171 Y75.398 E8.97351
G1 X134.895 Y75.967 E9.00414
G1 X135.567 Y76.597 E9.03477
G1 X136.182 Y77.282 E9.06539
G1 X136.735 Y78.018 E9.09601
G1 X137.222 Y78.799 E9.12662
G1 X137.639 Y79.62 E9.15725
G1 X137.984 Y80.474 E9.18788
G1 X138.253 Y81.354 E9.21849
G1 X138.445 Y82.255 E9.24913
G1 X138.558 Y83.168 E9.27973
G1 X138.587 Y83.712 E9.29785
G1 X138.596 Y84.032 E9.30849
G1 X138.6 Y84.328 E9.31834
G1 X138.602 Y96.039 E9.70785
G1 X138.598 Y97.015 E9.74031
G1 X138.6 Y97.279 E9.74909
G1 X138.599 Y122.41 E10.58495
G1 X138.589 Y123.137 E10.60914
G1 X138.536 Y124.056 E10.63975
G1 X138.404 Y124.967 E10.67037
G1 X138.193 Y125.863 E10.70099
G1 X137.906 Y126.738 E10.73161
G1 X137.543 Y127.584 E10.76223
G1 X137.109 Y128.396 E10.79286
G1 X136.605 Y129.167 E10.82349
G1 X136.037 Y129.891 E10.8541
G1 X135.408 Y130.563 E10.88471
G1 X134.723 Y131.178 E10.91533
G1 X133.987 Y131.731 E10.94595
G1 X133.206 Y132.219 E10.97658
G1 X132.386 Y132.637 E11.00719
G1 X131.532 Y132.982 E11.03783
G1 X130.652 Y133.251 E11.06843
G1 X129.751 Y133.444 E11.09908
G1 X128.838 Y133.557 E11.12968
G1 X128.288 Y133.587 E11.148
G1 X127.968 Y133.596 E11.15865
G1 X127.67 Y133.6 E11.16856
G1 X92.57 Y133.599 E12.33599
G1 X91.872 Y133.59 E12.35921
G1 X90.953 Y133.538 E12.38982
G1 X90.042 Y133.407 E12.42043
G1 X89.146 Y133.197 E12.45104
G1 X88.271 Y132.91 E12.48167
G1 X87.424 Y132.548 E12.51231
G1 X86.612 Y132.114 E12.54293
G1 X85.841 Y131.612 E12.57353
G1 X85.116 Y131.044 E12.60416
G1 X84.443 Y130.415 E12.6348
G1 X83.828 Y129.731 E12.66539
G1 X83.274 Y128.996 E12.69601
G1 X82.786 Y128.215 E12.72664
G1 X82.367 Y127.395 E12.75726
G1 X82.021 Y126.542 E12.78788
G1 X81.751 Y125.662 E12.8185
G1 X81.558 Y124.761 E12.84914
G1 X81.444 Y123.848 E12.87975
G1 X81.413 Y123.277 E12.89877
G1 X81.404 Y122.944 E12.90985
G1 X81.4 Y122.659 E12.91933
G1 X81.398 Y96.961 E13.77404
G1 X81.402 Y95.985 E13.80651
G1 X81.4 Y95.721 E13.81529
G1 X81.401 Y84.515 E14.188
G1 X81.411 Y83.85 E14.21012
G1 X81.465 Y82.931 E14.24074
G1 X81.598 Y82.02 E14.27136
G1 X81.81 Y81.124 E14.30198
G1 X82.099 Y80.249 E14.33263
G1 X82.463 Y79.404 E14.36324
G1 X82.898 Y78.593 E14.39384
G1 X83.403 Y77.822 E14.4245
G1 X83.972 Y77.099 E14.4551
G1 X84.602 Y76.427 E14.48574
G0 F6000 X84.993 Y76.606
G1 F1200 X85.675 Y76.014 E14.51577
G1 X86.407 Y75.485 E14.54581
G1 X87.183 Y75.023 E14.57585
G1 X87.997 Y74.632 E14.60589
G1 X88.842 Y74.313 E14.63593
G1 X89.712 Y74.071 E14.66596
G1 X90.6 Y73.907 E14.696
G1 X91.723 Y73.813 E14.73348
G1 X92.043 Y73.804 E14.74413
G1 X92.33 Y73.8 E14.75367
G1 X127.293 Y73.8 E15.91655
G1 X128.137 Y73.811 E15.94462
G1 X129.039 Y73.864 E15.97467
G1 X129.932 Y73.996 E16.0047
G1 X130.81 Y74.207 E16.03473
G1 X131.666 Y74.495 E16.06477
G1 X132.493 Y74.857 E16.09479
G1 X133.285 Y75.292 E16.12485
G1 X134.036 Y75.794 E16.15489
G1 X134.739 Y76.361 E16.18493
G1 X135.389 Y76.988 E16.21497
G1 X135.981 Y77.67 E16.24501
G1 X136.511 Y78.401 E16.27504
G1 X136.973 Y79.177 E16.30508
G1 X137.366 Y79.99 E16.33511
G1 X137.684 Y80.835 E16.36514
G1 X137.927 Y81.705 E16.39518
G1 X138.092 Y82.593 E16.42522
G1 X138.187 Y83.723 E16.46294
G1 X138.196 Y84.043 E16.47359
G1 X138.2 Y84.328 E16.48307
G1 X138.202 Y96.037 E16.87251
G1 X138.198 Y97.018 E16.90514
G1 X138.2 Y97.282 E16.91392
G1 X138.199 Y122.404 E17.74948
G1 X138.189 Y123.131 E17.77366
G1 X138.137 Y124.033 E17.80371
G1 X138.005 Y124.926 E17.83374
G1 X137.794 Y125.805 E17.8638
G1 X137.507 Y126.661 E17.89383
G1 X137.145 Y127.488 E17.92386
G1 X136.711 Y128.28 E17.9539
G1 X136.209 Y129.031 E17.98394
G1 X135.643 Y129.734 E18.01396
G1 X135.016 Y130.385 E18.04402
G1 X134.335 Y130.977 E18.07403
G1 X133.604 Y131.507 E18.10407
G1 X132.828 Y131.97 E18.13412
G1 X132.015 Y132.363 E18.16415
G1 X131.17 Y132.683 E18.19421
G1 X130.301 Y132.926 E18.22422
G1 X129.413 Y133.091 E18.25426
G1 X128.277 Y133.187 E18.29218
G1 X127.957 Y133.196 E18.30282
G1 X127.67 Y133.2 E18.31237
G1 X92.575 Y133.199 E19.47964
G1 X91.877 Y133.19 E19.50285
G1 X90.976 Y133.139 E19.53287
G1 X90.082 Y133.007 E19.56293
G1 X89.204 Y132.798 E19.59294
G1 X88.347 Y132.511 E19.623
G1 X87.52 Y132.15 E19.65302
G1 X86.727 Y131.717 E19.68307
G1 X85.976 Y131.216 E19.71309
G1 X85.272 Y130.65 E19.74314
G1 X84.621 Y130.024 E19.77318
G1 X84.028 Y129.343 E19.80321
G1 X83.498 Y128.612 E19.83324
G1 X83.034 Y127.837 E19.86329
G1 X82.64 Y127.024 E19.89333
G1 X82.32 Y126.18 E19.92336
G1 X82.076 Y125.31 E19.95341
G1 X81.91 Y124.422 E19.98345
G1 X81.813 Y123.267 E20.02201
G1 X81.804 Y122.934 E20.03309
G1 X81.8 Y122.659 E20.04223
G1 X81.798 Y96.963 E20.89689
G1 X81.802 Y95.982 E20.92951
G1 X81.8 Y95.718 E20.93829
G1 X81.801 Y84.521 E21.31071
G1 X81.811 Y83.856 E21.33283
G1 X81.865 Y82.954 E21.36288
G1 X81.998 Y82.061 E21.39291
G1 X82.209 Y81.183 E21.42295
G1 X82.498 Y80.327 E21.453
G1 X82.861 Y79.5 E21.48303
G1 X83.295 Y78.709 E21.51304
G1 X83.798 Y77.958 E21.54311
G1 X84.366 Y77.256 E21.57314
G1 X84.993 Y76.606 E21.60318
G1 F1500 E15.10318
;MESH:led.stl
G0 F6000 X92.414 Y83.335
G0 X92.414 Y84.414
G0 X121.917 Y84.804
G0 X120.738 Y86.29
G0 X121.18 Y87.253
G0 X122.213 Y88.077
;TYPE:WALL-INNER
G1 F1500 E21.60318
G1 F1200 X122.613 Y88.099 E21.6165
G1 X123.009 Y88.02 E21.62993
G1 X123.368 Y87.846 E21.6432
G1 X123.678 Y87.589 E21.6566
G1 X123.91 Y87.262 E21.66993
G1 X124.056 Y86.887 E21.68332
G1 X124.103 Y86.488 E21.69668
G1 X124.051 Y86.089 E21.71006
G1 X123.898 Y85.715 E21.7235
G1 X123.659 Y85.393 E21.73684
G1 X123.348 Y85.14 E21.75017
G1 X123.037 Y84.997 E21.76156
G1 X122.982 Y84.972 E21.76357
G1 X122.588 Y84.899 E21.77689
G1 X122.187 Y84.928 E21.79027
G1 X121.981 Y84.997 E21.79749
G1 X121.806 Y85.056 E21.80363
G1 X121.47 Y85.271 E21.8169
G1 X121.197 Y85.568 E21.83032
G1 X121.007 Y85.912 E21.84339
G1 X120.909 Y86.311 E21.85706
G1 X120.91 Y86.712 E21.87039
G1 X121.015 Y87.103 E21.88386
G1 X121.211 Y87.452 E21.89717
G1 X121.487 Y87.744 E21.91054
G1 X121.83 Y87.957 E21.92396
G1 X122.213 Y88.077 E21.93731
G0 F6000 X122.285 Y87.68
;TYPE:WALL-OUTER
G1 F1200 X122.585 Y87.697 E21.94731
G1 X122.88 Y87.638 E21.95731
G1 X123.15 Y87.507 E21.9673
G1 X123.382 Y87.315 E21.97731
G1 X123.555 Y87.071 E21.98726
G1 X123.665 Y86.789 E21.99733
G1 X123.7 Y86.491 E22.00731
G1 X123.661 Y86.192 E22.01734
G1 X123.547 Y85.913 E22.02736
G1 X123.368 Y85.672 E22.03734
G1 X123.135 Y85.482 E22.04734
G1 X122.861 Y85.356 E22.05738
G1 X122.566 Y85.302 E22.06735
G1 X122.266 Y85.323 E22.07735
G1 X121.98 Y85.419 E22.08739
G1 X121.729 Y85.58 E22.0973
G1 X121.524 Y85.803 E22.10738
G1 X121.383 Y86.059 E22.1171
G1 X121.309 Y86.359 E22.12738
G1 X121.31 Y86.659 E22.13736
G1 X121.388 Y86.951 E22.14741
G1 X121.535 Y87.213 E22.1574
G1 X121.742 Y87.431 E22.1674
G1 X121.998 Y87.59 E22.17742
G1 X122.285 Y87.68 E22.18743
G0 F6000 X122.207 Y88.112
G1 F1500 E15.68743
G0 F6000 X120.856 Y87.168
G0 X121.359 Y85.139
G0 X121.917 Y84.804
G0 X98.094 Y84.802
G0 X99.275 Y86.487
G0 X98.715 Y87.399
G0 X97.613 Y88.099
;TYPE:WALL-INNER
G1 F1500 E22.18743
G1 F1200 X98.009 Y88.02 E22.20086
G1 X98.368 Y87.846 E22.21413
G1 X98.678 Y87.589 E22.22752
G1 X98.91 Y87.262 E22.24085
G1 X99.056 Y86.887 E22.25424
G1 X99.103 Y86.488 E22.2676
G1 X99.051 Y86.089 E22.28098
G1 X98.898 Y85.715 E22.29442
G1 X98.659 Y85.393 E22.30776
G1 X98.348 Y85.14 E22.3211
G1 X98.037 Y84.997 E22.33248
G1 X97.982 Y84.972 E22.33449
G1 X97.588 Y84.899 E22.34782
G1 X97.187 Y84.928 E22.36119
G1 X96.981 Y84.997 E22.36842
G1 X96.806 Y85.056 E22.37456
G1 X96.47 Y85.271 E22.38783
G1 X96.197 Y85.568 E22.40124
G1 X96.007 Y85.912 E22.41431
G1 X95.909 Y86.311 E22.42798
G1 X95.91 Y86.712 E22.44132
G1 X96.015 Y87.103 E22.45478
G1 X96.211 Y87.452 E22.46809
G1 X96.487 Y87.744 E22.48146
G1 X96.83 Y87.957 E22.49489
G1 X97.213 Y88.077 E22.50824
G1 X97.613 Y88.099 E22.52156
G0 F6000 X97.585 Y87.697
;TYPE:WALL-OUTER
G1 F1200 X97.88 Y87.638 E22.53157
G1 X98.15 Y87.507 E22.54155
G1 X98.382 Y87.315 E22.55156
G1 X98.555 Y87.071 E22.56151
G1 X98.665 Y86.789 E22.57158
G1 X98.7 Y86.491 E22.58156
G1 X98.661 Y86.192 E22.59159
G1 X98.547 Y85.913 E22.60161
G1 X98.368 Y85.672 E22.6116
G1 X98.135 Y85.482 E22.6216
G1 X97.861 Y85.356 E22.63163
G1 X97.566 Y85.302 E22.6416
G1 X97.266 Y85.323 E22.65161
G1 X96.98 Y85.419 E22.66164
G1 X96.729 Y85.58 E22.67156
G1 X96.524 Y85.803 E22.68163
G1 X96.383 Y86.059 E22.69135
G1 X96.309 Y86.359 E22.70163
G1 X96.31 Y86.659 E22.71161
G1 X96.388 Y86.951 E22.72166
G1 X96.535 Y87.213 E22.73165
G1 X96.742 Y87.431 E22.74165
G1 X96.998 Y87.59 E22.75167
G1 X97.285 Y87.68 E22.76168
G1 X97.585 Y87.697 E22.77167
G0 F6000 X97.615 Y88.135
G1 F1500 E16.27167
G0 F6000 X99.061 Y87.344
G0 X98.784 Y85.274
G0 X98.094 Y84.802
G0 X121.917 Y84.804
G0 X127.218 Y84.782
G0 X127.4 Y95.4
;TYPE:WALL-INNER
G1 F1500 E22.77167
G1 F1200 X92.6 Y95.4 E23.92913
G1 X92.6 Y84.6 E24.28833
G1 X96.97 Y84.6 E24.43368
G1 X97.187 Y84.6 E24.44027
G1 X97.588 Y84.6 E24.45075
G1 X97.982 Y84.6 E24.46176
G1 X98.043 Y84.6 E24.46372
G1 X121.97 Y84.6 E25.25953
G1 X122.187 Y84.6 E25.26612
G1 X122.588 Y84.6 E25.2766
G1 X122.982 Y84.6 E25.28761
G1 X123.043 Y84.6 E25.28957
G1 X127.4 Y84.6 E25.43449
G1 X127.4 Y95.4 E25.79369
G0 F6000 X127.8 Y95.8
;TYPE:WALL-OUTER
G1 F1200 X92.2 Y95.8 E26.97776
G1 X92.2 Y84.2 E27.36357
G1 X127.8 Y84.2 E28.54763
G1 X127.8 Y95.8 E28.93345
G0 F6000 X127.53 Y95.53
G0 X127.29 Y95.01
G0 X127.01 Y95.01
;TYPE:SKIN
G1 F1200 X92.99 Y95.01 E30.06496
G1 X92.99 Y84.99 E30.39823
G1 X96.199 Y84.99 E30.50496
G1 X95.879 Y85.338 E30.52068
G1 X95.64 Y85.769 E30.53708
G1 X95.519 Y86.264 E30.55402
G1 X95.52 Y86.764 E30.57065
G1 X95.651 Y87.251 E30.58743
G1 X95.895 Y87.684 E30.60396
G1 X96.238 Y88.048 E30.62059
G1 X96.666 Y88.314 E30.63735
G1 X97.143 Y88.463 E30.65397
G1 X97.641 Y88.491 E30.67056
G1 X98.134 Y88.393 E30.68728
G1 X98.581 Y88.176 E30.70381
G1 X98.966 Y87.856 E30.72046
G1 X99.255 Y87.449 E30.73706
G1 X99.438 Y86.982 E30.75375
G1 X99.496 Y86.486 E30.77035
G1 X99.431 Y85.988 E30.78706
G1 X99.241 Y85.522 E30.8038
G1 X98.943 Y85.122 E30.82039
G1 X98.781 Y84.99 E30.82734
G1 X121.199 Y84.99 E31.57296
G1 X120.879 Y85.338 E31.58869
G1 X120.64 Y85.769 E31.60508
G1 X120.519 Y86.264 E31.62203
G1 X120.52 Y86.764 E31.63866
G1 X120.651 Y87.251 E31.65543
G1 X120.895 Y87.684 E31.67196
G1 X121.238 Y88.048 E31.6886
G1 X121.666 Y88.314 E31.70536
G1 X122.143 Y88.463 E31.72198
G1 X122.641 Y88.491 E31.73857
G1 X123.134 Y88.393 E31.75529
G1 X123.581 Y88.176 E31.77181
G1 X123.966 Y87.856 E31.78846
G1 X124.255 Y87.449 E31.80507
G1 X124.438 Y86.982 E31.82175
G1 X124.496 Y86.486 E31.83836
G1 X124.431 Y85.988 E31.85506
G1 X124.241 Y85.522 E31.8718
G1 X123.943 Y85.122 E31.88839
G1 X123.781 Y84.99 E31.89534
G1 X127.01 Y84.99 E32.00274
G1 X127.01 Y95.01 E32.336
G0 F6000 X127.29 Y95.01
G0 X127.29 Y85.554
G0 X126.849 Y85.554
G1 F1200 X126.444 Y85.149 E32.35505
G0 F6000 X125.879 Y85.149
G1 F1200 X126.849 Y86.119 E32.40068
G0 F6000 X126.849 Y86.685
G1 F1200 X125.313 Y85.149 E32.47293
G0 F6000 X124.747 Y85.149
G1 F1200 X126.849 Y87.251 E32.5718
G0 F6000 X126.849 Y87.817
G1 F1200 X124.205 Y85.173 E32.69617
G0 F6000 X123.836 Y85.446
G0 X124.177 Y86.2
G0 X124.612 Y86.145
G1 F1200 X126.849 Y88.382 E32.80139
G0 F6000 X126.849 Y88.948
G1 F1200 X124.627 Y86.726 E32.9059
G0 F6000 X124.526 Y87.191
G1 F1200 X126.849 Y89.514 E33.01517
G0 F6000 X126.849 Y90.079
G1 F1200 X124.353 Y87.584 E33.13255
G0 F6000 X124.118 Y87.914
G1 F1200 X126.849 Y90.645 E33.26101
G0 F6000 X126.849 Y91.211
G1 F1200 X123.821 Y88.183 E33.40344
G0 F6000 X123.477 Y88.404
G1 F1200 X126.849 Y91.776 E33.56204
G0 F6000 X126.849 Y92.342
G1 F1200 X123.074 Y88.567 E33.73961
G0 F6000 X122.589 Y88.648
G1 F1200 X126.849 Y92.908 E33.93999
G0 F6000 X126.849 Y93.473
G1 F1200 X121.944 Y88.568 E34.1707
G0 F6000 X122.076 Y88.15
G0 X120.858 Y86.944
G0 X120.433 Y87.057
G1 F1200 X118.525 Y85.149 E34.26045
G0 F6000 X119.09 Y85.149
G1 F1200 X120.359 Y86.418 E34.32014
G0 F6000 X120.435 Y85.929
G1 F1200 X119.656 Y85.149 E34.3568
G0 F6000 X120.222 Y85.149
G1 F1200 X120.594 Y85.521 E34.3743
G0 F6000 X120.979 Y85.734
