;FLAVOR:Marlin
;TIME:10466
;Filament used: 11.4115m
;Layer height: 0.28
;MINX:24.017
;MINY:49.011
;MINZ:0.28
;MAXX:195.99
;MAXY:170.989
;MAXZ:5.88
;Generated with Cura_SteamEngine 4.9.0
M140 S60
M105
M190 S60
M104 S200
M105
M109 S200
M82 ;absolute extrusion mode
; Ender 3 Custom Start G-code
G92 E0 ; Reset Extruder
G28 ; Home all axes
G1 Z2.0 F3000 ; Move Z Axis up little to prevent scratching of Heat Bed
G1 X0.1 Y20 Z0.3 F5000.0 ; Move to start position
G1 X0.1 Y200.0 Z0.3 F1500.0 E15 ; Draw the first line
G1 X0.4 Y200.0 Z0.3 F5000.0 ; Move to side a little
G1 X0.4 Y20 Z0.3 F1500.0 E30 ; Draw the second line
G92 E0 ; Reset Extruder
G1 Z2.0 F3000 ; Move Z Axis up little to prevent scratching of Heat Bed
G1 X5 Y20 Z0.3 F5000.0 ; Move over to prevent blob squish
G92 E0
G92 E0
G1 F1500 E-6.5
;LAYER_COUNT:21
;LAYER:0
M107
G0 F6000 X48.234 Y61.337 Z0.28
;TYPE:SKIRT
G1 F1500 E0
G1 F1200 X48.573 Y61.083 E0.01972
G1 X50.115 Y59.972 E0.10822
G1 X50.449 Y59.741 E0.12713
G1 X51.993 Y58.713 E0.2135
G1 X52.351 Y58.484 E0.23329
G1 X53.99 Y57.482 E0.32274
G1 X54.341 Y57.276 E0.34169
G1 X55.931 Y56.383 E0.42661
G1 X56.302 Y56.184 E0.44621
G1 X58.041 Y55.293 E0.5372
G1 X58.414 Y55.111 E0.55652
G1 X60.1 Y54.326 E0.64312
G1 X60.473 Y54.161 E0.66212
G1 X62.206 Y53.431 E0.74968
G1 X62.592 Y53.276 E0.76905
G1 X64.394 Y52.596 E0.85873
G1 X64.796 Y52.454 E0.87858
G1 X66.582 Y51.858 E0.96626
G1 X66.975 Y51.735 E0.98543
G1 X68.752 Y51.215 E1.07165
G1 X69.15 Y51.106 E1.09086
G1 X71.033 Y50.631 E1.18129
G1 X71.44 Y50.537 E1.20074
G1 X73.235 Y50.156 E1.28618
G1 X73.649 Y50.076 E1.30582
G1 X75.55 Y49.748 E1.39564
G1 X75.95 Y49.687 E1.41448
G1 X77.812 Y49.436 E1.50197
G1 X78.237 Y49.387 E1.52189
G1 X80.124 Y49.207 E1.61016
G1 X80.528 Y49.176 E1.62902
G1 X82.395 Y49.067 E1.71611
G1 X82.813 Y49.05 E1.73559
G1 X84.74 Y49.011 E1.82534
G1 X85.162 Y49.011 E1.84499
G1 X87.04 Y49.045 E1.93245
G1 X87.447 Y49.06 E1.95141
G1 X89.314 Y49.163 E2.03848
G1 X89.729 Y49.193 E2.05785
G1 X91.639 Y49.371 E2.14718
G1 X92.067 Y49.42 E2.16724
G1 X93.918 Y49.666 E2.25418
G1 X94.319 Y49.727 E2.27307
G1 X96.218 Y50.051 E2.36278
G1 X96.63 Y50.129 E2.3823
G1 X98.443 Y50.51 E2.46857
G1 X98.849 Y50.603 E2.48796
G1 X100.689 Y51.063 E2.57627
G1 X101.086 Y51.171 E2.59543
G1 X102.937 Y51.708 E2.68518
G1 X103.342 Y51.834 E2.70493
G1 X105.09 Y52.415 E2.7907
G1 X105.473 Y52.55 E2.80961
G1 X107.251 Y53.215 E2.898
G1 X107.639 Y53.368 E2.91742
G1 X109.403 Y54.105 E3.00644
G1 X109.785 Y54.274 E3.02589
G1 X111.484 Y55.061 E3.11308
G1 X111.857 Y55.242 E3.13239
G1 X113.548 Y56.104 E3.22077
G1 X113.911 Y56.298 E3.23993
G1 X115.173 Y57.002 E3.30722
G1 X117.427 Y58.22 E3.42652
G1 X119.66 Y59.346 E3.54297
G1 X121.966 Y60.429 E3.6616
G1 X124.269 Y61.431 E3.77855
G1 X126.597 Y62.367 E3.89538
G1 X128.982 Y63.248 E4.01377
G1 X131.189 Y63.997 E4.1223
G1 X154.634 Y71.626 E5.27034
G1 X157.121 Y72.397 E5.39158
G1 X159.508 Y73.063 E5.50697
G1 X162.013 Y73.687 E5.62718
G1 X164.45 Y74.219 E5.74333
G1 X166.212 Y74.562 E5.82692
G1 X166.794 Y74.669 E5.85447
G1 X167.076 Y74.725 E5.86786
G1 X167.838 Y74.886 E5.90412
G1 X168.151 Y74.957 E5.91907
G1 X168.651 Y75.078 E5.94302
G1 X168.914 Y75.145 E5.95566
G1 X169.749 Y75.369 E5.99592
G1 X170.019 Y75.445 E6.00898
G1 X170.489 Y75.584 E6.0318
G1 X170.782 Y75.675 E6.04608
G1 X171.502 Y75.91 E6.08135
G1 X171.757 Y75.997 E6.0939
G1 X172.297 Y76.188 E6.12057
G1 X172.582 Y76.293 E6.13471
G1 X173.304 Y76.571 E6.17074
G1 X173.595 Y76.687 E6.18532
G1 X174.102 Y76.899 E6.21091
G1 X174.348 Y77.006 E6.2234
G1 X175.019 Y77.306 E6.25763
G1 X175.278 Y77.426 E6.27092
G1 X175.817 Y77.684 E6.29875
G1 X176.085 Y77.817 E6.31268
G1 X176.727 Y78.146 E6.34627
G1 X176.983 Y78.281 E6.35975
G1 X177.503 Y78.565 E6.38733
G1 X177.761 Y78.711 E6.40114
G1 X178.44 Y79.106 E6.43772
G1 X178.675 Y79.246 E6.45045
G1 X179.112 Y79.515 E6.47435
G1 X179.369 Y79.678 E6.48852
G1 X180.072 Y80.138 E6.52764
G1 X180.335 Y80.316 E6.54243
G1 X180.74 Y80.598 E6.56541
G1 X180.955 Y80.751 E6.57769
G1 X181.572 Y81.203 E6.61331
G1 X181.809 Y81.382 E6.62714
G1 X182.24 Y81.716 E6.65253
G1 X182.472 Y81.901 E6.66634
G1 X183.146 Y82.453 E6.70691
G1 X183.345 Y82.62 E6.71901
G1 X183.622 Y82.858 E6.73601
G1 X183.838 Y83.048 E6.74941
G1 X184.475 Y83.625 E6.78943
G1 X184.705 Y83.84 E6.80409
G1 X185.099 Y84.218 E6.82951
G1 X185.317 Y84.433 E6.84377
G1 X185.875 Y84.999 E6.88078
G1 X186.049 Y85.18 E6.89247
G1 X186.454 Y85.61 E6.91998
G1 X186.685 Y85.863 E6.93593
G1 X187.169 Y86.41 E6.96994
G1 X187.337 Y86.604 E6.98189
G1 X187.689 Y87.021 E7.0073
G1 X187.879 Y87.253 E7.02126
G1 X188.39 Y87.893 E7.0594
G1 X188.565 Y88.117 E7.07263
G1 X188.839 Y88.479 E7.09377
G1 X189.006 Y88.706 E7.1069
G1 X189.463 Y89.343 E7.1434
G1 X189.63 Y89.582 E7.15698
G1 X189.95 Y90.054 E7.18353
G1 X190.116 Y90.308 E7.19766
G1 X190.531 Y90.958 E7.23357
G1 X190.688 Y91.21 E7.2474
G1 X191.009 Y91.744 E7.27641
G1 X191.161 Y92.005 E7.29047
G1 X191.512 Y92.627 E7.32373
G1 X191.649 Y92.877 E7.337
G1 X191.918 Y93.384 E7.36373
G1 X192.045 Y93.632 E7.3767
G1 X192.387 Y94.318 E7.41239
G1 X192.513 Y94.578 E7.42585
G1 X192.734 Y95.052 E7.4502
G1 X192.862 Y95.338 E7.46479
G1 X193.189 Y96.095 E7.50319
G1 X193.295 Y96.35 E7.51605
G1 X193.487 Y96.827 E7.53999
G1 X193.592 Y97.098 E7.55352
G1 X193.867 Y97.837 E7.59024
G1 X193.97 Y98.124 E7.60444
G1 X194.151 Y98.655 E7.63056
G1 X194.235 Y98.911 E7.64311
G1 X194.459 Y99.625 E7.67795
G1 X194.546 Y99.917 E7.69214
G1 X194.694 Y100.439 E7.7174
G1 X194.769 Y100.72 E7.73094
G1 X194.964 Y101.484 E7.76766
G1 X195.033 Y101.768 E7.78127
G1 X195.152 Y102.292 E7.80629
G1 X195.209 Y102.557 E7.81891
G1 X195.363 Y103.322 E7.85525
G1 X195.422 Y103.641 E7.87035
G1 X195.519 Y104.209 E7.89718
G1 X195.561 Y104.477 E7.90982
G1 X195.67 Y105.226 E7.94506
G1 X195.711 Y105.537 E7.95967
G1 X195.778 Y106.112 E7.98662
G1 X195.806 Y106.382 E7.99926
G1 X195.87 Y107.081 E8.03195
G1 X195.893 Y107.369 E8.0454
G1 X195.932 Y107.968 E8.07335
G1 X195.947 Y108.257 E8.08683
G1 X195.978 Y109.057 E8.12411
G1 X195.985 Y109.367 E8.13854
G1 X195.99 Y109.841 E8.16062
G1 X195.99 Y110.097 E8.17254
G1 X195.98 Y110.883 E8.20914
G1 X195.972 Y111.182 E8.22307
G1 X195.95 Y111.733 E8.24874
G1 X195.934 Y112.031 E8.26264
G1 X195.886 Y112.746 E8.29601
G1 X195.863 Y113.037 E8.3096
G1 X195.803 Y113.676 E8.33949
G1 X195.771 Y113.974 E8.35344
G1 X195.674 Y114.773 E8.39092
G1 X195.637 Y115.047 E8.4038
G1 X195.566 Y115.53 E8.42653
G1 X195.519 Y115.825 E8.44044
G1 X195.395 Y116.534 E8.47395
G1 X195.344 Y116.803 E8.4867
G1 X195.22 Y117.421 E8.51605
G1 X195.154 Y117.726 E8.53058
G1 X194.97 Y118.525 E8.56876
G1 X194.901 Y118.811 E8.58246
G1 X194.789 Y119.244 E8.60329
G1 X194.713 Y119.519 E8.61657
G1 X194.511 Y120.224 E8.65072
G1 X194.429 Y120.498 E8.66404
G1 X194.23 Y121.13 E8.69489
G1 X194.137 Y121.411 E8.70867
G1 X193.886 Y122.139 E8.74453
G1 X193.781 Y122.431 E8.75898
G1 X193.604 Y122.901 E8.78236
G1 X193.505 Y123.154 E8.79502
G1 X193.187 Y123.939 E8.83445
G1 X193.071 Y124.216 E8.84844
G1 X192.883 Y124.646 E8.87029
G1 X192.764 Y124.908 E8.88369
G1 X192.449 Y125.58 E8.91825
G1 X192.328 Y125.83 E8.93118
G1 X192.06 Y126.366 E8.95908
G1 X191.917 Y126.641 E8.97352
G1 X191.519 Y127.384 E9.01277
G1 X191.371 Y127.652 E9.02702
G1 X191.121 Y128.089 E9.05046
G1 X190.988 Y128.315 E9.06267
G1 X190.605 Y128.949 E9.09717
G1 X190.444 Y129.208 E9.11137
G1 X190.115 Y129.72 E9.1397
G1 X189.959 Y129.956 E9.15288
G1 X189.541 Y130.571 E9.1875
G1 X189.366 Y130.82 E9.20167
G1 X189.051 Y131.257 E9.22676
G1 X188.884 Y131.483 E9.23984
G1 X188.392 Y132.13 E9.27769
G1 X188.205 Y132.369 E9.29182
G1 X187.875 Y132.779 E9.31633
G1 X187.699 Y132.992 E9.32919
G1 X187.2 Y133.581 E9.36514
G1 X187.003 Y133.808 E9.37914
G1 X186.644 Y134.209 E9.4042
G1 X186.451 Y134.419 E9.41748
G1 X185.889 Y135.015 E9.45562
G1 X185.664 Y135.246 E9.47064
G1 X185.287 Y135.623 E9.49546
G1 X185.103 Y135.803 E9.50745
G1 X184.557 Y136.324 E9.54259
G1 X184.351 Y136.516 E9.5557
G1 X183.966 Y136.865 E9.5799
G1 X183.738 Y137.066 E9.59405
G1 X183.163 Y137.559 E9.62932
G1 X182.943 Y137.743 E9.64268
G1 X182.456 Y138.139 E9.67191
G1 X182.218 Y138.327 E9.68603
G1 X181.605 Y138.798 E9.72202
G1 X181.364 Y138.977 E9.736
G1 X180.992 Y139.247 E9.75741
G1 X180.776 Y139.401 E9.76976
G1 X180.122 Y139.852 E9.80675
G1 X179.902 Y140 E9.8191
G1 X179.433 Y140.307 E9.8452
G1 X179.159 Y140.48 E9.86029
G1 X178.466 Y140.905 E9.89814
G1 X178.181 Y141.074 E9.91357
G1 X177.713 Y141.342 E9.93868
G1 X177.489 Y141.467 E9.95063
G1 X176.799 Y141.841 E9.98717
G1 X176.55 Y141.971 E10.00025
G1 X176.073 Y142.214 E10.02518
G1 X175.8 Y142.349 E10.03936
G1 X175.097 Y142.683 E10.0756
G1 X174.834 Y142.804 E10.08908
G1 X174.306 Y143.038 E10.11597
G1 X174.044 Y143.15 E10.12924
G1 X173.375 Y143.426 E10.16294
G1 X173.094 Y143.537 E10.17701
G1 X172.553 Y143.743 E10.20396
G1 X172.279 Y143.843 E10.21755
G1 X171.529 Y144.106 E10.25455
G1 X171.26 Y144.197 E10.26778
G1 X170.791 Y144.348 E10.29072
G1 X170.524 Y144.43 E10.30373
G1 X169.776 Y144.65 E10.34003
G1 X169.475 Y144.734 E10.35458
G1 X168.94 Y144.875 E10.38034
G1 X168.691 Y144.937 E10.39229
G1 X167.941 Y145.116 E10.4282
G1 X167.62 Y145.188 E10.44352
G1 X167.046 Y145.307 E10.47081
G1 X166.76 Y145.362 E10.48437
G1 X166.435 Y145.42 E10.49975
G1 X163.916 Y145.913 E10.61927
G1 X161.452 Y146.47 E10.7369
G1 X159.022 Y147.09 E10.85367
G1 X156.54 Y147.798 E10.97385
G1 X154.713 Y148.371 E11.06301
G1 X131.142 Y156.033 E12.21711
G1 X128.66 Y156.878 E12.33919
G1 X126.296 Y157.76 E12.45668
G1 X123.989 Y158.695 E12.57259
G1 X121.661 Y159.716 E12.69096
G1 X119.413 Y160.778 E12.80673
G1 X117.139 Y161.933 E12.9255
G1 X115.129 Y163.021 E13.03192
G1 X113.876 Y163.72 E13.09873
G1 X113.516 Y163.912 E13.11773
G1 X111.825 Y164.774 E13.20611
G1 X111.438 Y164.962 E13.22614
G1 X109.724 Y165.753 E13.31404
G1 X109.347 Y165.918 E13.33321
G1 X107.598 Y166.647 E13.42144
G1 X107.22 Y166.797 E13.44037
G1 X105.461 Y167.455 E13.52782
G1 X105.06 Y167.596 E13.54762
G1 X103.224 Y168.203 E13.63766
G1 X102.823 Y168.327 E13.6572
G1 X101.005 Y168.852 E13.74532
G1 X100.604 Y168.96 E13.76465
G1 X98.8 Y169.408 E13.85121
G1 X98.401 Y169.499 E13.87026
G1 X96.56 Y169.884 E13.95784
G1 X96.147 Y169.962 E13.97741
G1 X94.278 Y170.279 E14.06569
G1 X93.87 Y170.34 E14.0849
G1 X92.003 Y170.585 E14.17258
G1 X91.591 Y170.632 E14.19188
G1 X89.677 Y170.81 E14.28139
G1 X89.255 Y170.841 E14.3011
G1 X87.398 Y170.942 E14.38769
G1 X86.994 Y170.956 E14.40652
G1 X85.112 Y170.989 E14.49416
G1 X84.691 Y170.989 E14.51377
G1 X82.807 Y170.95 E14.60151
G1 X82.389 Y170.933 E14.62099
G1 X80.501 Y170.822 E14.70906
G1 X80.093 Y170.79 E14.72811
G1 X78.171 Y170.605 E14.81802
G1 X77.748 Y170.556 E14.83785
G1 X75.895 Y170.305 E14.92492
G1 X75.487 Y170.242 E14.94415
G1 X73.624 Y169.918 E15.0322
G1 X73.225 Y169.841 E15.05112
G1 X71.397 Y169.453 E15.13814
G1 X70.985 Y169.357 E15.15783
G1 X69.126 Y168.887 E15.24712
G1 X68.718 Y168.776 E15.26681
G1 X66.899 Y168.241 E15.3551
G1 X66.51 Y168.119 E15.37408
G1 X64.754 Y167.531 E15.46031
G1 X64.362 Y167.391 E15.47969
G1 X62.558 Y166.71 E15.56948
G1 X62.17 Y166.555 E15.58894
G1 X60.45 Y165.83 E15.67585
G1 X60.067 Y165.66 E15.69536
G1 X58.342 Y164.854 E15.78402
G1 X57.98 Y164.677 E15.80278
G1 X56.312 Y163.822 E15.89006
G1 X55.931 Y163.617 E15.91021
G1 X54.264 Y162.678 E15.9993
G1 X53.91 Y162.47 E16.01842
G1 X52.29 Y161.476 E16.10692
G1 X51.94 Y161.252 E16.12627
G1 X50.394 Y160.221 E16.2128
G1 X50.051 Y159.982 E16.23226
G1 X48.512 Y158.869 E16.3207
G1 X48.183 Y158.622 E16.33986
G1 X46.684 Y157.45 E16.42846
G1 X46.357 Y157.184 E16.44809
G1 X44.913 Y155.963 E16.53614
G1 X44.608 Y155.695 E16.55505
G1 X43.228 Y154.438 E16.64197
G1 X42.924 Y154.15 E16.66147
G1 X41.568 Y152.817 E16.75001
G1 X41.277 Y152.521 E16.76934
G1 X39.982 Y151.148 E16.85722
G1 X39.701 Y150.838 E16.8767
G1 X38.468 Y149.427 E16.96395
G1 X38.202 Y149.111 E16.98319
G1 X36.989 Y147.613 E17.07294
G1 X36.726 Y147.275 E17.09288
G1 X35.609 Y145.78 E17.17978
G1 X35.372 Y145.45 E17.1987
G1 X34.285 Y143.877 E17.28773
G1 X34.052 Y143.526 E17.30735
G1 X33.044 Y141.941 E17.39482
G1 X32.829 Y141.588 E17.41406
G1 X31.863 Y139.935 E17.50321
G1 X31.659 Y139.57 E17.52268
G1 X30.792 Y137.948 E17.60832
G1 X30.608 Y137.588 E17.62715
G1 X29.767 Y135.865 E17.71642
G1 X29.587 Y135.478 E17.7363
G1 X28.822 Y133.743 E17.82459
G1 X28.662 Y133.361 E17.84388
G1 X27.965 Y131.604 E17.93189
G1 X27.817 Y131.21 E17.95149
G1 X27.195 Y129.448 E18.0385
G1 X27.067 Y129.061 E18.05748
G1 X26.492 Y127.217 E18.14742
G1 X26.375 Y126.815 E18.16692
G1 X25.885 Y125.004 E18.25428
G1 X25.784 Y124.603 E18.27353
G1 X25.364 Y122.782 E18.36055
G1 X25.278 Y122.372 E18.38006
G1 X24.921 Y120.501 E18.46875
G1 X24.85 Y120.086 E18.48836
G1 X24.57 Y118.237 E18.57544
G1 X24.517 Y117.834 E18.59436
G1 X24.302 Y115.945 E18.68289
G1 X24.262 Y115.528 E18.7024
G1 X24.118 Y113.617 E18.79163
G1 X24.095 Y113.201 E18.81103
G1 X24.025 Y111.327 E18.89836
G1 X24.017 Y110.91 E18.91778
G1 X24.018 Y109.052 E19.00429
G1 X24.026 Y108.639 E19.02353
G1 X24.099 Y106.725 E19.11272
G1 X24.123 Y106.31 E19.13207
G1 X24.266 Y104.43 E19.21987
G1 X24.305 Y104.02 E19.23904
G1 X24.519 Y102.14 E19.32715
G1 X24.575 Y101.714 E19.34716
G1 X24.868 Y99.806 E19.43704
G1 X24.938 Y99.403 E19.45609
G1 X25.291 Y97.563 E19.54333
G1 X25.379 Y97.149 E19.56304
G1 X25.801 Y95.331 E19.64994
G1 X25.901 Y94.933 E19.66905
G1 X26.394 Y93.119 E19.75658
G1 X26.507 Y92.732 E19.77535
G1 X27.078 Y90.899 E19.86475
G1 X27.215 Y90.488 E19.88493
G1 X27.841 Y88.726 E19.972
G1 X27.985 Y88.343 E19.99105
G1 X28.684 Y86.586 E20.0791
G1 X28.845 Y86.202 E20.09849
G1 X29.612 Y84.468 E20.18678
G1 X29.787 Y84.092 E20.20609
G1 X30.615 Y82.396 E20.29397
G1 X30.802 Y82.03 E20.31311
G1 X31.687 Y80.377 E20.40041
G1 X31.894 Y80.009 E20.42008
G1 X32.853 Y78.372 E20.50842
G1 X33.068 Y78.02 E20.52762
G1 X34.089 Y76.418 E20.61608
G1 X34.325 Y76.063 E20.63593
G1 X35.394 Y74.521 E20.7233
G1 X35.63 Y74.194 E20.74208
G1 X36.767 Y72.676 E20.83039
G1 X37.02 Y72.35 E20.84961
G1 X38.216 Y70.872 E20.93814
G1 X38.485 Y70.553 E20.95757
G1 X39.714 Y69.147 E21.04452
G1 X39.994 Y68.838 E21.06394
G1 X41.292 Y67.462 E21.15202
G1 X41.593 Y67.155 E21.17204
G1 X42.975 Y65.8 E21.26216
G1 X43.267 Y65.525 E21.28084
G1 X44.631 Y64.282 E21.36677
G1 X44.95 Y64.002 E21.38654
G1 X46.409 Y62.772 E21.47539
G1 X46.73 Y62.511 E21.49466
G1 X48.234 Y61.337 E21.5835
G0 F6000 X48.481 Y61.652
G1 F1200 X48.807 Y61.408 E21.60246
G1 X50.349 Y60.297 E21.69096
G1 X50.67 Y60.074 E21.70916
G1 X52.214 Y59.046 E21.79553
G1 X52.56 Y58.825 E21.81465
G1 X54.199 Y57.823 E21.9041
G1 X54.537 Y57.625 E21.92234
G1 X56.127 Y56.732 E22.00726
G1 X56.484 Y56.54 E22.02613
G1 X58.223 Y55.649 E22.11712
G1 X58.583 Y55.474 E22.13575
G1 X60.269 Y54.689 E22.22235
G1 X60.628 Y54.529 E22.24066
G1 X62.361 Y53.799 E22.32822
G1 X62.734 Y53.651 E22.3469
G1 X64.536 Y52.971 E22.43659
G1 X64.923 Y52.833 E22.45572
G1 X66.709 Y52.237 E22.54339
G1 X67.087 Y52.119 E22.56183
G1 X68.864 Y51.599 E22.64805
G1 X69.248 Y51.494 E22.66658
G1 X71.131 Y51.019 E22.75701
G1 X71.523 Y50.928 E22.77575
G1 X73.318 Y50.547 E22.86119
G1 X73.717 Y50.47 E22.88012
G1 X75.618 Y50.142 E22.96994
G1 X76.004 Y50.083 E22.98812
G1 X77.866 Y49.832 E23.07561
G1 X78.275 Y49.785 E23.09478
G1 X80.162 Y49.605 E23.18305
G1 X80.551 Y49.575 E23.20121
G1 X82.418 Y49.466 E23.2883
G1 X82.822 Y49.45 E23.30712
G1 X84.749 Y49.411 E23.39687
G1 X85.155 Y49.411 E23.41578
G1 X87.033 Y49.445 E23.50324
G1 X87.425 Y49.459 E23.5215
G1 X89.292 Y49.562 E23.60857
G1 X89.692 Y49.592 E23.62725
G1 X91.602 Y49.77 E23.71657
G1 X92.014 Y49.816 E23.73588
G1 X93.865 Y50.062 E23.82282
G1 X94.252 Y50.121 E23.84105
G1 X96.151 Y50.445 E23.93076
G1 X96.548 Y50.521 E23.94958
G1 X98.361 Y50.902 E24.03584
G1 X98.752 Y50.991 E24.05451
G1 X100.592 Y51.451 E24.14283
G1 X100.974 Y51.555 E24.16126
G1 X102.825 Y52.092 E24.25101
G1 X103.215 Y52.213 E24.27002
G1 X104.963 Y52.794 E24.35579
G1 X105.333 Y52.925 E24.37407
G1 X107.111 Y53.59 E24.46246
G1 X107.484 Y53.737 E24.48113
G1 X109.248 Y54.474 E24.57015
G1 X109.617 Y54.637 E24.58894
G1 X111.316 Y55.424 E24.67612
