;FLAVOR:Marlin
;TIME:7946
;Filament used: 4.74018m
;Layer height: 0.2
;MINX:46.012
;MINY:35.215
;MINZ:0.2
;MAXX:173.988
;MAXY:173.988
;MAXZ:20
;Generated with Cura_SteamEngine 4.9.0
M140 S60
M105
M190 S60
M104 S200
M105
M109 S200
M82 ;absolute extrusion mode
; Ender 3 Custom Start G-code
G92 E0 ; Reset Extruder
G28 ; Home all axes
G1 Z2.0 F3000 ; Move Z Axis up little to prevent scratching of Heat Bed
G1 X0.1 Y20 Z0.3 F5000.0 ; Move to start position
G1 X0.1 Y200.0 Z0.3 F1500.0 E15 ; Draw the first line
G1 X0.4 Y200.0 Z0.3 F5000.0 ; Move to side a little
G1 X0.4 Y20 Z0.3 F1500.0 E30 ; Draw the second line
G92 E0 ; Reset Extruder
G1 Z2.0 F3000 ; Move Z Axis up little to prevent scratching of Heat Bed
G1 X5 Y20 Z0.3 F5000.0 ; Move over to prevent blob squish
G92 E0
G92 E0
G1 F1500 E-6.5
;LAYER_COUNT:100
;LAYER:0
M107
G0 F6000 X94.815 Y42.076 Z0.2
;TYPE:SKIRT
G1 F1500 E0
G1 F1200 X95.204 Y41.223 E0.03118
G1 X95.665 Y40.406 E0.06238
G1 X96.193 Y39.631 E0.09357
G1 X96.786 Y38.904 E0.12478
G1 X97.438 Y38.23 E0.15597
G1 X98.145 Y37.614 E0.18716
G1 X98.903 Y37.061 E0.21836
G1 X99.704 Y36.574 E0.24954
G1 X100.544 Y36.157 E0.28073
G1 X101.417 Y35.814 E0.31193
G1 X102.316 Y35.546 E0.34313
G1 X103.234 Y35.355 E0.37432
G1 X104.165 Y35.243 E0.40551
G1 X105.3 Y35.215 E0.44327
G1 X106.032 Y35.236 E0.46762
G1 X107.466 Y35.296 E0.51536
G1 X109.963 Y35.33 E0.59842
G1 X113.661 Y35.255 E0.72144
G1 X114.551 Y35.219 E0.75107
G1 X115.489 Y35.221 E0.78226
G1 X116.423 Y35.303 E0.81345
G1 X117.347 Y35.465 E0.84465
G1 X118.254 Y35.704 E0.87585
G1 X119.137 Y36.02 E0.90704
G1 X119.99 Y36.41 E0.93824
G1 X120.806 Y36.872 E0.96942
G1 X121.58 Y37.401 E1.00061
G1 X122.307 Y37.994 E1.03181
G1 X122.98 Y38.647 E1.063
G1 X123.595 Y39.355 E1.09419
G1 X124.148 Y40.112 E1.12537
G1 X124.634 Y40.914 E1.15656
G1 X125.05 Y41.755 E1.18777
G1 X125.468 Y42.851 E1.22678
G1 X125.755 Y43.746 E1.25804
G1 X125.866 Y44.111 E1.27073
G1 X126.659 Y46.495 E1.3543
G1 X127.521 Y48.864 E1.43814
G1 X128.454 Y51.219 E1.52239
G1 X129.452 Y53.542 E1.60648
G1 X130.501 Y55.808 E1.68954
G1 X131.611 Y58.037 E1.77236
G1 X132.821 Y60.304 E1.85783
G1 X134.041 Y62.441 E1.93967
G1 X135.373 Y64.629 E2.02487
G1 X136.735 Y66.729 E2.10812
G1 X138.179 Y68.822 E2.19269
G1 X139.64 Y70.818 E2.27496
G1 X141.199 Y72.826 E2.35952
G1 X142.791 Y74.762 E2.44288
G1 X144.442 Y76.657 E2.52648
G1 X146.163 Y78.524 E2.61093
G1 X147.909 Y80.312 E2.69405
G1 X149.711 Y82.055 E2.77743
G1 X151.592 Y83.777 E2.86225
G1 X153.489 Y85.415 E2.94561
G1 X155.428 Y86.997 E3.02885
G1 X157.438 Y88.545 E3.11323
G1 X159.47 Y90.02 E3.19674
G1 X161.528 Y91.426 E3.27964
G1 X163.671 Y92.804 E3.36438
G1 X165.797 Y94.087 E3.44697
G1 X167.58 Y95.09 E3.51501
G1 X168.248 Y95.475 E3.54066
G1 X169.04 Y95.977 E3.57184
G1 X169.786 Y96.545 E3.60303
G1 X170.481 Y97.175 E3.63423
G1 X171.12 Y97.862 E3.66543
G1 X171.698 Y98.6 E3.69661
G1 X172.211 Y99.385 E3.7278
G1 X172.655 Y100.211 E3.75899
G1 X173.028 Y101.072 E3.7902
G1 X173.325 Y101.961 E3.82138
G1 X173.546 Y102.873 E3.85259
G1 X173.686 Y103.771 E3.88282
G1 X173.725 Y104.144 E3.89529
G1 X173.774 Y104.697 E3.91375
G1 X173.809 Y105.155 E3.92903
G1 X173.911 Y106.769 E3.98282
G1 X173.927 Y107.109 E3.99414
G1 X173.985 Y108.931 E4.05477
G1 X173.988 Y109.233 E4.06482
G1 X173.987 Y110.933 E4.12136
G1 X173.981 Y111.249 E4.13187
G1 X173.933 Y112.781 E4.18285
G1 X173.918 Y113.112 E4.19387
G1 X173.815 Y114.766 E4.24899
G1 X173.788 Y115.131 E4.26116
G1 X173.707 Y116.015 E4.29069
G1 X173.58 Y116.945 E4.32191
G1 X173.374 Y117.86 E4.3531
G1 X173.092 Y118.754 E4.38428
G1 X172.734 Y119.621 E4.41548
G1 X172.304 Y120.454 E4.44666
G1 X171.804 Y121.248 E4.47787
G1 X171.238 Y121.996 E4.50907
G1 X170.611 Y122.693 E4.54025
G1 X169.927 Y123.335 E4.57145
G1 X169.19 Y123.915 E4.60264
G1 X168.407 Y124.431 E4.63383
G1 X167.644 Y124.848 E4.66275
G1 X166.685 Y125.323 E4.69835
G1 X165.951 Y125.673 E4.72539
G1 X163.732 Y126.811 E4.80834
G1 X161.512 Y128.028 E4.89254
G1 X159.333 Y129.306 E4.97656
G1 X157.228 Y130.62 E5.05909
G1 X155.119 Y132.023 E5.14334
G1 X153.051 Y133.484 E5.22756
G1 X151.06 Y134.977 E5.31033
G1 X149.071 Y136.557 E5.39482
G1 X147.136 Y138.186 E5.47894
G1 X145.257 Y139.862 E5.56269
G1 X143.449 Y141.567 E5.64535
G1 X141.651 Y143.363 E5.72987
G1 X139.934 Y145.176 E5.81292
G1 X138.249 Y147.062 E5.89704
G1 X136.64 Y148.966 E5.97995
G1 X135.049 Y150.963 E6.06487
G1 X133.55 Y152.956 E6.14782
G1 X132.096 Y155.008 E6.23146
G1 X130.698 Y157.104 E6.31526
G1 X129.349 Y159.256 E6.39974
G1 X128.085 Y161.405 E6.48266
G1 X126.856 Y163.636 E6.56738
G1 X125.714 Y165.859 E6.6505
G1 X124.88 Y167.585 E6.71426
G1 X124.433 Y168.409 E6.74544
G1 X123.917 Y169.192 E6.77663
G1 X123.336 Y169.929 E6.80784
G1 X122.694 Y170.613 E6.83904
G1 X121.997 Y171.24 E6.87022
G1 X121.249 Y171.806 E6.90142
G1 X120.455 Y172.305 E6.93261
G1 X119.622 Y172.736 E6.96381
G1 X118.755 Y173.093 E6.99499
G1 X117.86 Y173.376 E7.02621
G1 X116.945 Y173.581 E7.0574
G1 X116.186 Y173.691 E7.08291
G1 X115.801 Y173.73 E7.09578
G1 X115.068 Y173.793 E7.12025
G1 X114.807 Y173.812 E7.12895
G1 X113.114 Y173.917 E7.18537
G1 X112.777 Y173.933 E7.19659
G1 X111.245 Y173.981 E7.24757
G1 X110.929 Y173.987 E7.25808
G1 X109.225 Y173.988 E7.31476
G1 X108.928 Y173.985 E7.32464
G1 X107.222 Y173.932 E7.38141
G1 X106.896 Y173.918 E7.39226
G1 X105.181 Y173.811 E7.44941
G1 X104.694 Y173.773 E7.46566
G1 X103.985 Y173.707 E7.48934
G1 X103.056 Y173.58 E7.52053
G1 X102.141 Y173.375 E7.55171
G1 X101.247 Y173.092 E7.5829
G1 X100.38 Y172.734 E7.6141
G1 X99.546 Y172.304 E7.64531
G1 X98.753 Y171.804 E7.67649
G1 X98.005 Y171.239 E7.70767
G1 X97.307 Y170.612 E7.73888
G1 X96.666 Y169.927 E7.77008
G1 X96.085 Y169.191 E7.80127
G1 X95.569 Y168.408 E7.83246
G1 X95.15 Y167.641 E7.86152
G1 X94.648 Y166.625 E7.89922
G1 X94.348 Y165.995 E7.92242
G1 X93.202 Y163.756 E8.00608
G1 X91.982 Y161.531 E8.09048
G1 X90.709 Y159.358 E8.17424
G1 X89.389 Y157.244 E8.25714
G1 X87.982 Y155.125 E8.34174
G1 X86.541 Y153.085 E8.42481
G1 X85.038 Y151.078 E8.5082
G1 X83.464 Y149.096 E8.59238
G1 X81.848 Y147.176 E8.67585
G1 X80.152 Y145.273 E8.76064
G1 X78.446 Y143.462 E8.84339
G1 X76.66 Y141.673 E8.92747
G1 X74.86 Y139.969 E9.0099
G1 X72.937 Y138.25 E9.09569
G1 X71.032 Y136.638 E9.17869
G1 X69.069 Y135.072 E9.26221
G1 X67.064 Y133.564 E9.34566
G1 X65.011 Y132.109 E9.42935
G1 X62.916 Y130.71 E9.51314
G1 X60.785 Y129.374 E9.59679
G1 X58.6 Y128.088 E9.68112
G1 X56.402 Y126.876 E9.7646
G1 X54.153 Y125.72 E9.84871
G1 X52.593 Y124.967 E9.90632
G1 X52.244 Y124.791 E9.91932
G1 X52.115 Y124.723 E9.92417
G1 X51.304 Y124.251 E9.95538
G1 X50.537 Y123.711 E9.98658
G1 X49.819 Y123.108 E10.01777
G1 X49.155 Y122.446 E10.04895
G1 X48.549 Y121.73 E10.08015
G1 X48.007 Y120.965 E10.11133
G1 X47.531 Y120.156 E10.14255
G1 X47.127 Y119.31 E10.17373
G1 X46.796 Y118.432 E10.20494
G1 X46.541 Y117.53 E10.23612
G1 X46.363 Y116.609 E10.26732
G1 X46.304 Y116.144 E10.28291
G1 X46.274 Y115.846 E10.29287
G1 X46.225 Y115.285 E10.3116
G1 X46.187 Y114.785 E10.32828
G1 X46.089 Y113.227 E10.3802
G1 X46.073 Y112.89 E10.39142
G1 X46.015 Y111.069 E10.45202
G1 X46.012 Y110.767 E10.46206
G1 X46.013 Y109.067 E10.51861
G1 X46.019 Y108.751 E10.52912
G1 X46.067 Y107.219 E10.5801
G1 X46.091 Y106.725 E10.59655
G1 X46.198 Y105.054 E10.65224
G1 X46.229 Y104.666 E10.66519
G1 X46.294 Y103.975 E10.68827
G1 X46.422 Y103.046 E10.71946
G1 X46.628 Y102.131 E10.75066
G1 X46.912 Y101.237 E10.78185
G1 X47.27 Y100.37 E10.81305
G1 X47.701 Y99.537 E10.84425
G1 X48.202 Y98.744 E10.87544
G1 X48.768 Y97.996 E10.90664
G1 X49.396 Y97.3 E10.93782
G1 X50.081 Y96.659 E10.96903
G1 X50.818 Y96.079 E11.00022
G1 X51.807 Y95.444 E11.03931
G1 X52.944 Y94.799 E11.08279
G1 X53.122 Y94.702 E11.08953
G1 X55.338 Y93.406 E11.17491
G1 X57.433 Y92.098 E11.25706
G1 X59.558 Y90.689 E11.34186
G1 X61.61 Y89.243 E11.42535
G1 X63.621 Y87.737 E11.50892
G1 X65.602 Y86.165 E11.59303
G1 X67.521 Y84.552 E11.67641
G1 X69.399 Y82.88 E11.76004
G1 X71.233 Y81.153 E11.84383
G1 X73.007 Y79.383 E11.92718
G1 X74.743 Y77.552 E12.0111
G1 X76.443 Y75.653 E12.09587
G1 X78.051 Y73.752 E12.17868
G1 X79.615 Y71.794 E12.26203
G1 X81.137 Y69.772 E12.34621
G1 X82.594 Y67.72 E12.42991
G1 X83.986 Y65.636 E12.51326
G1 X85.34 Y63.479 E12.59797
G1 X86.599 Y61.341 E12.68049
G1 X87.838 Y59.098 E12.76572
G1 X88.965 Y56.909 E12.84761
G1 X90.067 Y54.613 E12.93232
G1 X91.09 Y52.317 E13.01592
G1 X92.065 Y49.955 E13.10091
G1 X92.944 Y47.634 E13.18346
G1 X93.777 Y45.236 E13.26789
G1 X94.433 Y43.177 E13.33976
G1 X94.5 Y42.959 E13.34735
G1 X94.815 Y42.076 E13.37853
G0 F6000 X95.192 Y42.211
G1 F1200 X95.576 Y41.374 E13.40916
G1 X96.031 Y40.574 E13.43977
G1 X96.554 Y39.816 E13.4704
G1 X97.141 Y39.107 E13.50101
G1 X97.787 Y38.451 E13.53164
G1 X98.488 Y37.854 E13.56226
G1 X99.238 Y37.319 E13.5929
G1 X100.031 Y36.852 E13.62351
G1 X100.862 Y36.456 E13.65413
G1 X101.724 Y36.133 E13.68475
G1 X102.611 Y35.886 E13.71537
G1 X103.516 Y35.717 E13.74599
G1 X104.432 Y35.627 E13.7766
G1 X105.289 Y35.615 E13.80511
G1 X106.015 Y35.635 E13.82927
G1 X107.48 Y35.696 E13.87803
G1 X109.965 Y35.73 E13.96069
G1 X113.685 Y35.654 E14.08445
G1 X114.567 Y35.619 E14.11381
G1 X115.487 Y35.622 E14.14441
G1 X116.404 Y35.704 E14.17503
G1 X117.311 Y35.866 E14.20567
G1 X118.199 Y36.107 E14.23627
G1 X119.064 Y36.423 E14.2669
G1 X119.898 Y36.813 E14.29753
G1 X120.695 Y37.274 E14.32815
G1 X121.449 Y37.803 E14.35878
G1 X122.154 Y38.395 E14.3894
G1 X122.805 Y39.045 E14.42
G1 X123.397 Y39.75 E14.45062
G1 X123.926 Y40.504 E14.48125
G1 X124.388 Y41.301 E14.51189
G1 X124.778 Y42.134 E14.54249
G1 X125.087 Y42.973 E14.57222
G1 X125.374 Y43.868 E14.60348
G1 X125.49 Y44.247 E14.61667
G1 X126.279 Y46.622 E14.69991
G1 X127.149 Y49.012 E14.7845
G1 X128.085 Y51.376 E14.86907
G1 X129.079 Y53.689 E14.9528
G1 X130.145 Y55.99 E15.03714
G1 X131.258 Y58.225 E15.12019
G1 X132.456 Y60.469 E15.20479
G1 X133.711 Y62.667 E15.28898
G1 X135.039 Y64.849 E15.37394
G1 X136.402 Y66.952 E15.45729
G1 X137.842 Y69.039 E15.54162
G1 X139.317 Y71.054 E15.62468
G1 X140.89 Y73.079 E15.70996
G1 X142.496 Y75.033 E15.79409
G1 X144.13 Y76.907 E15.87678
G1 X145.871 Y78.797 E15.96225
G1 X147.645 Y80.614 E16.04671
G1 X149.446 Y82.356 E16.13005
G1 X151.324 Y84.074 E16.2147
G1 X153.22 Y85.712 E16.29804
G1 X155.176 Y87.308 E16.38201
G1 X157.204 Y88.87 E16.46715
G1 X159.231 Y90.341 E16.55045
G1 X161.316 Y91.766 E16.63444
G1 X163.444 Y93.134 E16.71858
G1 X165.61 Y94.441 E16.80272
G1 X167.38 Y95.436 E16.87026
G1 X168.048 Y95.821 E16.8959
G1 X168.825 Y96.315 E16.92653
G1 X169.556 Y96.875 E16.95715
G1 X170.236 Y97.495 E16.98776
G1 X170.859 Y98.173 E17.01839
G1 X171.422 Y98.902 E17.04902
G1 X171.919 Y99.677 E17.07964
G1 X172.346 Y100.492 E17.11024
G1 X172.702 Y101.341 E17.14086
G1 X172.982 Y102.218 E17.17148
G1 X173.185 Y103.116 E17.20211
G1 X173.288 Y103.816 E17.22564
G1 X173.326 Y104.18 E17.23781
G1 X173.375 Y104.729 E17.25614
G1 X173.41 Y105.18 E17.27119
G1 X173.512 Y106.794 E17.32498
G1 X173.528 Y107.122 E17.3359
G1 X173.585 Y108.938 E17.39633
G1 X173.588 Y109.233 E17.40614
G1 X173.587 Y110.927 E17.46249
G1 X173.581 Y111.237 E17.4728
G1 X173.526 Y112.948 E17.52974
G1 X173.51 Y113.248 E17.53973
G1 X173.404 Y114.909 E17.59508
G1 X173.376 Y115.248 E17.6064
G1 X173.308 Y115.978 E17.63078
G1 X173.183 Y116.89 E17.6614
G1 X172.979 Y117.788 E17.69203
G1 X172.698 Y118.665 E17.72266
G1 X172.343 Y119.514 E17.75327
G1 X171.914 Y120.329 E17.7839
G1 X171.417 Y121.104 E17.81452
G1 X170.854 Y121.832 E17.84513
G1 X170.23 Y122.509 E17.87575
G1 X169.55 Y123.13 E17.90638
G1 X168.819 Y123.689 E17.93699
G1 X168.041 Y124.182 E17.96762
G1 X167.466 Y124.49 E17.98932
G1 X166.512 Y124.962 E18.02472
G1 X165.789 Y125.307 E18.05136
G1 X163.522 Y126.469 E18.13609
G1 X161.334 Y127.669 E18.21909
G1 X159.14 Y128.955 E18.30368
G1 X157.007 Y130.287 E18.38732
G1 X154.898 Y131.689 E18.47155
G1 X152.834 Y133.147 E18.5556
G1 X150.785 Y134.683 E18.64077
G1 X148.833 Y136.234 E18.72369
G1 X146.904 Y137.858 E18.80756
G1 X144.98 Y139.574 E18.89331
G1 X143.169 Y141.281 E18.97608
G1 X141.361 Y143.088 E19.0611
G1 X139.636 Y144.91 E19.14455
G1 X137.946 Y146.801 E19.22891
G1 X136.321 Y148.725 E19.31267
G1 X134.719 Y150.736 E19.39818
G1 X133.234 Y152.71 E19.48034
G1 X131.757 Y154.796 E19.56535
G1 X130.346 Y156.911 E19.64992
G1 X129.024 Y159.02 E19.7327
G1 X127.735 Y161.212 E19.81728
G1 X126.516 Y163.425 E19.90131
G1 X125.34 Y165.714 E19.98691
G1 X124.521 Y167.409 E20.04952
G1 X124.081 Y168.218 E20.08015
G1 X123.572 Y168.986 E20.11079
G1 X122.999 Y169.706 E20.1414
G1 X122.366 Y170.375 E20.17203
G1 X121.677 Y170.985 E20.20264
G1 X120.938 Y171.534 E20.23326
G1 X120.154 Y172.016 E20.26387
G1 X119.331 Y172.429 E20.29449
G1 X118.475 Y172.768 E20.32512
G1 X117.593 Y173.032 E20.35574
G1 X116.691 Y173.219 E20.38638
G1 X116.142 Y173.293 E20.4048
G1 X115.767 Y173.331 E20.41734
G1 X115.034 Y173.394 E20.44181
G1 X114.782 Y173.413 E20.45021
G1 X113.089 Y173.518 E20.50663
G1 X112.765 Y173.533 E20.51742
G1 X111.058 Y173.585 E20.57422
G1 X110.766 Y173.588 E20.58393
G1 X109.078 Y173.587 E20.64007
G1 X108.744 Y173.581 E20.65118
G1 X107.06 Y173.526 E20.70722
G1 X106.758 Y173.51 E20.71728
G1 X105.022 Y173.399 E20.77514
G1 X104.732 Y173.374 E20.78482
G1 X104.023 Y173.308 E20.80851
G1 X103.11 Y173.183 E20.83916
G1 X102.213 Y172.98 E20.86974
G1 X101.336 Y172.699 E20.90037
G1 X100.487 Y172.343 E20.93099
G1 X99.672 Y171.915 E20.96161
G1 X98.897 Y171.417 E20.99225
G1 X98.168 Y170.855 E21.02287
G1 X97.491 Y170.231 E21.05349
G1 X96.871 Y169.551 E21.0841
G1 X96.312 Y168.819 E21.11473
G1 X95.818 Y168.042 E21.14535
G1 X95.509 Y167.463 E21.16718
G1 X95.009 Y166.453 E21.20467
G1 X94.704 Y165.813 E21.22825
G1 X93.543 Y163.546 E21.31296
G1 X92.344 Y161.357 E21.39597
G1 X91.051 Y159.149 E21.48108
G1 X89.722 Y157.022 E21.56449
G1 X88.322 Y154.915 E21.64863
G1 X86.855 Y152.837 E21.73324
G1 X85.342 Y150.818 E21.81715
G1 X83.765 Y148.832 E21.9015
G1 X82.156 Y146.92 E21.98461
G1 X80.459 Y145.016 E22.06944
G1 X78.732 Y143.184 E22.15318
G1 X76.935 Y141.383 E22.2378
G1 X75.103 Y139.648 E22.32172
G1 X73.217 Y137.962 E22.40586
G1 X71.294 Y136.336 E22.48962
G1 X69.335 Y134.773 E22.57297
G1 X67.289 Y133.234 E22.65813
G1 X65.218 Y131.765 E22.74258
G1 X63.13 Y130.372 E22.82606
G1 X60.993 Y129.032 E22.90995
G1 X58.817 Y127.751 E22.99394
G1 X56.572 Y126.514 E23.07919
G1 X54.362 Y125.377 E23.16185
G1 X52.766 Y124.607 E23.22079
G1 X52.43 Y124.437 E23.23332
G1 X52.301 Y124.369 E23.23817
G1 X51.506 Y123.905 E23.26878
G1 X50.754 Y123.373 E23.29942
G1 X50.052 Y122.778 E23.33003
G1 X49.403 Y122.125 E23.36065
G1 X48.814 Y121.418 E23.39126
G1 X48.288 Y120.662 E23.42189
G1 X47.83 Y119.863 E23.45252
G1 X47.443 Y119.028 E23.48313
G1 X47.129 Y118.162 E23.51377
G1 X46.892 Y117.273 E23.54437
G1 X46.702 Y116.102 E23.58382
G1 X46.673 Y115.81 E23.59358
G1 X46.623 Y115.254 E23.61215
G1 X46.586 Y114.759 E23.62866
G1 X46.488 Y113.201 E23.68058
G1 X46.472 Y112.877 E23.69137
G1 X46.415 Y111.062 E23.75177
G1 X46.412 Y110.767 E23.76158
G1 X46.413 Y109.073 E23.81792
G1 X46.419 Y108.763 E23.82824
G1 X46.474 Y107.052 E23.88517
G1 X46.49 Y106.75 E23.89523
G1 X46.596 Y105.085 E23.95072
G1 X46.628 Y104.703 E23.96347
G1 X46.693 Y104.012 E23.98656
G1 X46.819 Y103.1 E24.01718
G1 X47.023 Y102.203 E24.04778
G1 X47.305 Y101.326 E24.07842
G1 X47.662 Y100.477 E24.10905
G1 X48.091 Y99.663 E24.13965
G1 X48.589 Y98.889 E24.17026
G1 X49.152 Y98.16 E24.2009
G1 X49.777 Y97.484 E24.23152
G1 X50.457 Y96.864 E24.26213
G1 X51.189 Y96.306 E24.29274
G1 X52.005 Y95.791 E24.32483
G1 X52.986 Y95.233 E24.36237
G1 X53.336 Y95.04 E24.37566
G1 X55.505 Y93.772 E24.45923
G1 X57.685 Y92.412 E24.54469
G1 X59.763 Y91.033 E24.62764
G1 X61.851 Y89.562 E24.71259
G1 X63.868 Y88.051 E24.79641
G1 X65.841 Y86.486 E24.88017
G1 X67.778 Y84.858 E24.96433
G1 X69.675 Y83.168 E25.04883
G1 X71.506 Y81.444 E25.13247
G1 X73.315 Y79.639 E25.21747
G1 X75.031 Y77.83 E25.3004
G1 X76.73 Y75.932 E25.38513
G1 X78.353 Y74.014 E25.46869
G1 X79.949 Y72.016 E25.55375
G1 X81.45 Y70.021 E25.63678
G1 X82.919 Y67.952 E25.72118
G1 X84.34 Y65.824 E25.80629
G1 X85.68 Y63.69 E25.8901
G1 X86.945 Y61.544 E25.97295
